(G-CODE GENERATED BY FLATCAM v8.99 - www.flatcam.org - Version Date: 2019/12/15)

(Name: copper_iso_cnc)
(Type: G-code from Geometry)
(Units: MM)

(Created on Thursday, 25 June 2020 at 11:10)

(TOOL DIAMETER: 0.6 mm)
(Feedrate: 200.0 mm/min)
(Feedrate_Z: 76.2 mm/min)
(Feedrate rapids 76.2 mm/min)

(Z_Cut: -0.2 mm)
(Z_Move: 1.0 mm)
(Z Toolchange: 20.0 mm)
(X,Y Toolchange: 0.0000, 0.0000 mm)
(Z Start: None mm)
(Z End: 20.0 mm)
(Steps per circle: 128)
(Preprocessor Geometry: default)

(X range:  -45.5251 ...   -0.4749  mm)
(Y range:    0.4749 ...   46.1003  mm)

(Spindle Speed: 12000 RPM)
G21
G90
G94




G01 F200.00
G00 Z1.0000

M03 S12000
G00 X-6.4930 Y6.7556
G01 F76.20
G01 Z-0.2000
G01 F200.00
G01 X-6.4886 Y6.6942
G01 X-6.4825 Y6.6477
G01 X-6.4756 Y6.6086
G01 X-6.4635 Y6.5561
G01 X-6.4507 Y6.5110
G01 X-6.4406 Y6.4806
G01 X-6.4185 Y6.4232
G01 X-6.3995 Y6.3812
G01 X-6.3847 Y6.3518
G01 X-6.3544 Y6.2983
G01 X-6.3291 Y6.2589
G01 X-6.3053 Y6.2254
G01 X-6.2821 Y6.1955
G01 X-6.2517 Y6.1598
G01 X-6.2146 Y6.1204
G01 X-6.1752 Y6.0833
G01 X-6.1494 Y6.0611
G01 X-6.1096 Y6.0297
G01 X-6.0761 Y6.0059
G01 X-6.0355 Y5.9798
G01 X-5.9832 Y5.9503
G01 X-5.9538 Y5.9355
G01 X-5.9118 Y5.9165
G01 X-5.8544 Y5.8944
G01 X-5.8099 Y5.8800
G01 X-5.7646 Y5.8679
G01 X-5.7264 Y5.8594
G01 X-5.6727 Y5.8503
G01 X-5.6262 Y5.8450
G01 X-5.5795 Y5.8419
G01 X-5.5400 Y5.8410
G01 X-5.5005 Y5.8419
G01 X-5.4538 Y5.8450
G01 X-5.3927 Y5.8525
G01 X-5.3467 Y5.8609
G01 X-5.3011 Y5.8715
G01 X-5.2560 Y5.8843
G01 X-5.2256 Y5.8944
G01 X-5.1783 Y5.9122
G01 X-5.1262 Y5.9355
G01 X-5.0838 Y5.9572
G01 X-5.0559 Y5.9730
G01 X-5.0209 Y5.9947
G01 X-4.6151 Y5.9947
G01 X-4.5832 Y5.9954
G01 X-4.5440 Y5.9980
G01 X-4.5050 Y6.0024
G01 X-4.4587 Y6.0102
G01 X-4.4278 Y6.0170
G01 X-4.3758 Y6.0314
G01 X-4.3386 Y6.0441
G01 X-4.3021 Y6.0586
G01 X-4.2671 Y6.0745
G01 X-4.2444 Y6.0859
G01 X-4.2101 Y6.1049
G01 X-4.1644 Y6.1338
G01 X-4.1325 Y6.1567
G01 X-4.1018 Y6.1811
G01 X-4.0832 Y6.1972
G01 X-4.0492 Y6.2291
G01 X-3.0640 Y7.2145
G01 X-3.0372 Y7.2432
G01 X-3.0199 Y7.2632
G01 X-2.9932 Y7.2971
G01 X-2.9738 Y7.3244
G01 X-2.9449 Y7.3701
G01 X-2.9259 Y7.4044
G01 X-2.9145 Y7.4271
G01 X-2.8986 Y7.4621
G01 X-2.8841 Y7.4986
G01 X-2.8672 Y7.5499
G01 X-2.8570 Y7.5878
G01 X-2.8517 Y7.6118
G01 X-2.8424 Y7.6650
G01 X-2.8392 Y7.6911
G01 X-2.8362 Y7.7285
G01 X-2.8347 Y7.7751
G01 X-2.8347 Y20.9680
G01 X-2.8354 Y20.9999
G01 X-2.8394 Y21.0538
G01 X-2.8446 Y21.0927
G01 X-2.8502 Y21.1244
G01 X-2.8570 Y21.1553
G01 X-2.8672 Y21.1932
G01 X-2.8841 Y21.2445
G01 X-2.8943 Y21.2709
G01 X-2.9085 Y21.3035
G01 X-2.9328 Y21.3517
G01 X-2.9525 Y21.3857
G01 X-2.9738 Y21.4187
G01 X-2.9932 Y21.4460
G01 X-3.0118 Y21.4699
G01 X-3.0372 Y21.4999
G01 X-3.0691 Y21.5339
G01 X-3.4001 Y21.8649
G01 X-3.4232 Y21.8869
G01 X-3.4541 Y21.9141
G01 X-3.4880 Y21.9408
G01 X-3.5276 Y21.9684
G01 X-3.5495 Y21.9823
G01 X-3.5730 Y21.9960
G01 X-3.6006 Y22.0414
G01 X-3.6282 Y22.0810
G01 X-3.6561 Y22.1163
G01 X-3.6821 Y22.1458
G01 X-3.7041 Y22.1689
G01 X-4.1047 Y22.5695
G01 X-4.1047 Y24.8209
G01 X-4.0747 Y24.8448
G01 X-4.0266 Y24.8868
G01 X-3.9858 Y24.9258
G01 X-3.9468 Y24.9666
G01 X-3.8955 Y25.0260
G01 X-3.8618 Y25.0693
G01 X-3.8283 Y25.1167
G01 X-3.7862 Y25.1830
G01 X-3.7551 Y25.2387
G01 X-3.7327 Y25.2833
G01 X-3.7026 Y25.3509
G01 X-3.6836 Y25.4001
G01 X-3.6589 Y25.4747
G01 X-3.6423 Y25.5363
G01 X-3.6315 Y25.5842
G01 X-3.6181 Y25.6615
G01 X-3.6119 Y25.7120
G01 X-3.6070 Y25.7739
G01 X-3.6051 Y25.8524
G01 X-3.6070 Y25.9161
G01 X-3.6106 Y25.9651
G01 X-3.6202 Y26.0430
G01 X-3.6300 Y26.0989
G01 X-3.6423 Y26.1537
G01 X-3.6589 Y26.2153
G01 X-3.6786 Y26.2760
G01 X-3.7069 Y26.3493
G01 X-3.7327 Y26.4067
G01 X-3.7551 Y26.4513
G01 X-3.7938 Y26.5196
G01 X-3.8283 Y26.5733
G01 X-3.8565 Y26.6134
G01 X-3.9048 Y26.6753
G01 X-3.9468 Y26.7234
G01 X-3.9806 Y26.7590
G01 X-4.0375 Y26.8131
G01 X-4.0860 Y26.8545
G01 X-4.1293 Y26.8882
G01 X-4.1767 Y26.9217
G01 X-4.2430 Y26.9638
G01 X-4.2987 Y26.9949
G01 X-4.3433 Y27.0173
G01 X-4.4109 Y27.0474
G01 X-4.4740 Y27.0714
G01 X-4.5347 Y27.0911
G01 X-4.5820 Y27.1042
G01 X-4.6586 Y27.1214
G01 X-4.7215 Y27.1319
G01 X-4.7720 Y27.1381
G01 X-4.8486 Y27.1437
G01 X-4.9050 Y27.1450
G01 X-4.9614 Y27.1437
G01 X-5.0397 Y27.1379
G01 X-5.1030 Y27.1298
G01 X-5.1589 Y27.1200
G01 X-5.2137 Y27.1077
G01 X-5.2753 Y27.0911
G01 X-5.3499 Y27.0664
G01 X-5.4093 Y27.0431
G01 X-5.4674 Y27.0170
G01 X-5.5243 Y26.9879
G01 X-5.5670 Y26.9638
G01 X-5.6333 Y26.9217
G01 X-5.6853 Y26.8847
G01 X-5.7353 Y26.8452
G01 X-5.7725 Y26.8131
G01 X-5.8242 Y26.7642
G01 X-5.8731 Y26.7125
G01 X-5.9064 Y26.6739
G01 X-5.9291 Y26.6453
G01 X-10.9753 Y26.6453
G01 X-10.9753 Y27.0947
G01 X-10.9756 Y27.1086
G01 X-10.9782 Y27.1364
G01 X-10.9805 Y27.1501
G01 X-10.9869 Y27.1772
G01 X-10.9911 Y27.1906
G01 X-11.0012 Y27.2165
G01 X-11.0075 Y27.2298
G01 X-11.0220 Y27.2553
G01 X-11.0389 Y27.2793
G01 X-11.0581 Y27.3016
G01 X-11.0684 Y27.3119
G01 X-11.0907 Y27.3311
G01 X-11.1025 Y27.3399
G01 X-11.1273 Y27.3556
G01 X-11.1402 Y27.3625
G01 X-11.1663 Y27.3742
G01 X-11.1928 Y27.3831
G01 X-11.2062 Y27.3866
G01 X-11.2199 Y27.3895
G01 X-11.2475 Y27.3934
G01 X-11.2753 Y27.3947
G01 X-13.7747 Y27.3947
G01 X-13.8025 Y27.3934
G01 X-13.8301 Y27.3895
G01 X-13.8572 Y27.3831
G01 X-13.8706 Y27.3789
G01 X-13.8965 Y27.3688
G01 X-13.9227 Y27.3556
G01 X-13.9475 Y27.3399
G01 X-13.9593 Y27.3311
G01 X-13.9816 Y27.3119
G01 X-13.9919 Y27.3016
G01 X-14.0111 Y27.2793
G01 X-14.0199 Y27.2675
G01 X-14.0356 Y27.2427
G01 X-14.0425 Y27.2298
G01 X-14.0488 Y27.2165
G01 X-14.0589 Y27.1906
G01 X-14.0666 Y27.1638
G01 X-14.0718 Y27.1364
G01 X-14.0734 Y27.1225
G01 X-14.0747 Y27.0947
G01 X-14.0747 Y24.5953
G01 X-14.0734 Y24.5675
G01 X-14.0695 Y24.5399
G01 X-14.0666 Y24.5262
G01 X-14.0589 Y24.4994
G01 X-14.0542 Y24.4863
G01 X-14.0425 Y24.4602
G01 X-14.0356 Y24.4473
G01 X-14.0199 Y24.4225
G01 X-14.0111 Y24.4107
G01 X-13.9919 Y24.3884
G01 X-13.9816 Y24.3781
G01 X-13.9593 Y24.3589
G01 X-13.9475 Y24.3501
G01 X-13.9227 Y24.3344
G01 X-13.9098 Y24.3275
G01 X-13.8965 Y24.3212
G01 X-13.8706 Y24.3111
G01 X-13.8572 Y24.3069
G01 X-13.8301 Y24.3005
G01 X-13.8025 Y24.2966
G01 X-13.7747 Y24.2953
G01 X-11.2753 Y24.2953
G01 X-11.2475 Y24.2966
G01 X-11.2199 Y24.3005
G01 X-11.2062 Y24.3034
G01 X-11.1928 Y24.3069
G01 X-11.1663 Y24.3158
G01 X-11.1402 Y24.3275
G01 X-11.1273 Y24.3344
G01 X-11.1025 Y24.3501
G01 X-11.0907 Y24.3589
G01 X-11.0684 Y24.3781
G01 X-11.0581 Y24.3884
G01 X-11.0389 Y24.4107
G01 X-11.0220 Y24.4347
G01 X-11.0144 Y24.4473
G01 X-11.0012 Y24.4735
G01 X-10.9958 Y24.4863
G01 X-10.9869 Y24.5128
G01 X-10.9834 Y24.5262
G01 X-10.9782 Y24.5536
G01 X-10.9766 Y24.5675
G01 X-10.9753 Y24.5953
G01 X-10.9753 Y25.0447
G01 X-5.9291 Y25.0447
G01 X-5.9052 Y25.0147
G01 X-5.8731 Y24.9775
G01 X-5.8242 Y24.9258
G01 X-5.7725 Y24.8769
G01 X-5.7339 Y24.8436
G01 X-5.7053 Y24.8209
G01 X-5.7053 Y22.2380
G01 X-5.7038 Y22.1914
G01 X-5.7006 Y22.1522
G01 X-5.6976 Y22.1279
G01 X-5.6883 Y22.0747
G01 X-5.6794 Y22.0364
G01 X-5.6728 Y22.0128
G01 X-5.6609 Y21.9754
G01 X-5.6457 Y21.9351
G01 X-5.6315 Y21.9025
G01 X-5.6141 Y21.8673
G01 X-5.5951 Y21.8330
G01 X-5.5744 Y21.7996
G01 X-5.5468 Y21.7600
G01 X-5.5282 Y21.7361
G01 X-5.5028 Y21.7061
G01 X-5.4709 Y21.6721
G01 X-5.0697 Y21.2709
G01 X-5.0656 Y21.2132
G01 X-5.0604 Y21.1743
G01 X-5.0548 Y21.1426
G01 X-5.0480 Y21.1117
G01 X-5.0378 Y21.0738
G01 X-5.0209 Y21.0225
G01 X-5.0064 Y20.9860
G01 X-4.9905 Y20.9510
G01 X-4.9791 Y20.9283
G01 X-4.9601 Y20.8940
G01 X-4.9394 Y20.8606
G01 X-4.9171 Y20.8283
G01 X-4.8839 Y20.7857
G01 X-4.8579 Y20.7562
G01 X-4.8359 Y20.7331
G01 X-4.8128 Y20.7111
G01 X-4.7833 Y20.6851
G01 X-4.7407 Y20.6519
G01 X-4.7084 Y20.6296
G01 X-4.6865 Y20.6157
G01 X-4.6407 Y20.5899
G01 X-4.6055 Y20.5725
G01 X-4.5729 Y20.5583
G01 X-4.5465 Y20.5481
G01 X-4.5093 Y20.5354
G01 X-4.4716 Y20.5246
G01 X-4.4353 Y20.5161
G01 X-4.4353 Y8.1066
G01 X-4.9466 Y7.5953
G01 X-5.0209 Y7.5953
G01 X-5.0559 Y7.6170
G01 X-5.0968 Y7.6397
G01 X-5.1262 Y7.6545
G01 X-5.1682 Y7.6735
G01 X-5.2256 Y7.6956
G01 X-5.2701 Y7.7100
G01 X-5.3011 Y7.7185
G01 X-5.3536 Y7.7306
G01 X-5.4073 Y7.7397
G01 X-5.4409 Y7.7438
G01 X-5.4858 Y7.7474
G01 X-5.5400 Y7.7490
G01 X-5.5942 Y7.7474
G01 X-5.6408 Y7.7436
G01 X-5.6727 Y7.7397
G01 X-5.7333 Y7.7291
G01 X-5.7789 Y7.7185
G01 X-5.8099 Y7.7100
G01 X-5.8683 Y7.6907
G01 X-5.9017 Y7.6778
G01 X-5.9412 Y7.6605
G01 X-5.9962 Y7.6328
G01 X-6.0367 Y7.6094
G01 X-6.0638 Y7.5922
G01 X-6.1142 Y7.5568
G01 X-6.1508 Y7.5277
G01 X-6.1752 Y7.5067
G01 X-6.2146 Y7.4696
G01 X-6.2517 Y7.4302
G01 X-6.2739 Y7.4044
G01 X-6.3018 Y7.3692
G01 X-6.3291 Y7.3311
G01 X-6.3552 Y7.2905
G01 X-6.3847 Y7.2382
G01 X-6.3995 Y7.2088
G01 X-6.4185 Y7.1668
G01 X-6.4406 Y7.1094
G01 X-6.4550 Y7.0649
G01 X-6.4671 Y7.0196
G01 X-6.4741 Y6.9883
G01 X-6.4825 Y6.9423
G01 X-6.4900 Y6.8812
G01 X-6.4931 Y6.8345
G01 X-6.4939 Y6.8024
G01 X-6.4930 Y6.7556
G00 Z1.0000
G00 X-6.4930 Y9.2956
G01 F76.20
G01 Z-0.2000
G01 F200.00
G01 X-6.4900 Y9.2488
G01 X-6.4847 Y9.2023
G01 X-6.4756 Y9.1486
G01 X-6.4671 Y9.1104
G01 X-6.4550 Y9.0651
G01 X-6.4406 Y9.0206
G01 X-6.4228 Y8.9733
G01 X-6.4055 Y8.9338
G01 X-6.3847 Y8.8918
G01 X-6.3620 Y8.8509
G01 X-6.3372 Y8.8112
G01 X-6.3053 Y8.7654
G01 X-6.2821 Y8.7355
G01 X-6.2517 Y8.6998
G01 X-6.2146 Y8.6604
G01 X-6.1861 Y8.6331
G01 X-6.1494 Y8.6011
G01 X-6.1096 Y8.5697
G01 X-6.0761 Y8.5459
G01 X-6.0355 Y8.5198
G01 X-5.9962 Y8.4972
G01 X-5.9538 Y8.4755
G01 X-5.9118 Y8.4565
G01 X-5.8683 Y8.4393
G01 X-5.8240 Y8.4243
G01 X-5.7789 Y8.4115
G01 X-5.7264 Y8.3994
G01 X-5.6873 Y8.3925
G01 X-5.6391 Y8.3862
G01 X-5.5942 Y8.3826
G01 X-5.5400 Y8.3810
G01 X-5.5005 Y8.3819
G01 X-5.4538 Y8.3850
G01 X-5.4073 Y8.3903
G01 X-5.3536 Y8.3994
G01 X-5.3154 Y8.4079
G01 X-5.2701 Y8.4200
G01 X-5.2256 Y8.4344
G01 X-5.1783 Y8.4522
G01 X-5.1388 Y8.4695
G01 X-5.0968 Y8.4903
G01 X-5.0559 Y8.5130
G01 X-5.0162 Y8.5378
G01 X-4.9704 Y8.5697
G01 X-4.9405 Y8.5929
G01 X-4.9048 Y8.6233
G01 X-4.8654 Y8.6604
G01 X-4.8381 Y8.6889
G01 X-4.8061 Y8.7256
G01 X-4.7747 Y8.7654
G01 X-4.7509 Y8.7989
G01 X-4.7248 Y8.8395
G01 X-4.7022 Y8.8788
G01 X-4.6805 Y8.9212
G01 X-4.6615 Y8.9632
G01 X-4.6443 Y9.0067
G01 X-4.6293 Y9.0510
G01 X-4.6165 Y9.0961
G01 X-4.6044 Y9.1486
G01 X-4.5975 Y9.1877
G01 X-4.5912 Y9.2359
G01 X-4.5876 Y9.2808
G01 X-4.5860 Y9.3350
G01 X-4.5869 Y9.3745
G01 X-4.5900 Y9.4212
G01 X-4.5953 Y9.4677
G01 X-4.6044 Y9.5214
G01 X-4.6129 Y9.5596
G01 X-4.6250 Y9.6049
G01 X-4.6394 Y9.6494
G01 X-4.6572 Y9.6967
G01 X-4.6745 Y9.7362
G01 X-4.6953 Y9.7782
G01 X-4.7180 Y9.8191
G01 X-4.7428 Y9.8588
G01 X-4.7747 Y9.9046
G01 X-4.7979 Y9.9345
G01 X-4.8283 Y9.9702
G01 X-4.8654 Y10.0096
G01 X-4.8939 Y10.0369
G01 X-4.9306 Y10.0689
G01 X-4.9704 Y10.1003
G01 X-5.0039 Y10.1241
G01 X-5.0445 Y10.1502
G01 X-5.0838 Y10.1728
G01 X-5.1262 Y10.1945
G01 X-5.1682 Y10.2135
G01 X-5.2117 Y10.2307
G01 X-5.2560 Y10.2457
G01 X-5.3011 Y10.2585
G01 X-5.3536 Y10.2706
G01 X-5.3927 Y10.2775
G01 X-5.4409 Y10.2838
G01 X-5.4858 Y10.2874
G01 X-5.5400 Y10.2890
G01 X-5.5795 Y10.2881
G01 X-5.6262 Y10.2850
G01 X-5.6727 Y10.2797
G01 X-5.7264 Y10.2706
G01 X-5.7646 Y10.2621
G01 X-5.8099 Y10.2500
G01 X-5.8544 Y10.2356
G01 X-5.9017 Y10.2178
G01 X-5.9412 Y10.2005
G01 X-5.9832 Y10.1797
G01 X-6.0241 Y10.1570
G01 X-6.0638 Y10.1322
G01 X-6.1096 Y10.1003
G01 X-6.1395 Y10.0771
G01 X-6.1752 Y10.0467
G01 X-6.2146 Y10.0096
G01 X-6.2419 Y9.9811
G01 X-6.2739 Y9.9444
G01 X-6.3053 Y9.9046
G01 X-6.3291 Y9.8711
G01 X-6.3552 Y9.8305
G01 X-6.3778 Y9.7912
G01 X-6.3995 Y9.7488
G01 X-6.4185 Y9.7068
G01 X-6.4357 Y9.6633
G01 X-6.4507 Y9.6190
G01 X-6.4635 Y9.5739
G01 X-6.4756 Y9.5214
G01 X-6.4825 Y9.4823
G01 X-6.4888 Y9.4341
G01 X-6.4924 Y9.3892
G01 X-6.4940 Y9.3350
G01 X-6.4930 Y9.2956
G00 Z1.0000
G00 X-6.4930 Y11.8356
G01 F76.20
G01 Z-0.2000
G01 F200.00
G01 X-6.4900 Y11.7888
G01 X-6.4847 Y11.7423
G01 X-6.4756 Y11.6886
G01 X-6.4671 Y11.6504
G01 X-6.4550 Y11.6051
G01 X-6.4406 Y11.5606
G01 X-6.4228 Y11.5133
G01 X-6.4055 Y11.4738
G01 X-6.3847 Y11.4318
G01 X-6.3620 Y11.3909
G01 X-6.3372 Y11.3512
G01 X-6.3053 Y11.3054
G01 X-6.2821 Y11.2755
G01 X-6.2517 Y11.2398
G01 X-6.2146 Y11.2004
G01 X-6.1861 Y11.1731
G01 X-6.1494 Y11.1411
G01 X-6.1096 Y11.1097
G01 X-6.0761 Y11.0859
G01 X-6.0355 Y11.0598
G01 X-5.9962 Y11.0372
G01 X-5.9538 Y11.0155
G01 X-5.9118 Y10.9965
G01 X-5.8683 Y10.9793
G01 X-5.8240 Y10.9643
G01 X-5.7789 Y10.9515
G01 X-5.7264 Y10.9394
G01 X-5.6873 Y10.9325
G01 X-5.6391 Y10.9262
G01 X-5.5942 Y10.9226
G01 X-5.5400 Y10.9210
G01 X-5.5005 Y10.9219
G01 X-5.4538 Y10.9250
G01 X-5.4073 Y10.9303
G01 X-5.3536 Y10.9394
G01 X-5.3154 Y10.9479
G01 X-5.2701 Y10.9600
G01 X-5.2256 Y10.9744
G01 X-5.1783 Y10.9922
G01 X-5.1388 Y11.0095
G01 X-5.0968 Y11.0303
G01 X-5.0559 Y11.0530
G01 X-5.0162 Y11.0778
G01 X-4.9704 Y11.1097
G01 X-4.9405 Y11.1329
G01 X-4.9048 Y11.1633
G01 X-4.8654 Y11.2004
G01 X-4.8381 Y11.2289
G01 X-4.8061 Y11.2656
G01 X-4.7747 Y11.3054
G01 X-4.7509 Y11.3389
G01 X-4.7248 Y11.3795
G01 X-4.7022 Y11.4188
G01 X-4.6805 Y11.4612
G01 X-4.6615 Y11.5032
G01 X-4.6443 Y11.5467
G01 X-4.6293 Y11.5910
G01 X-4.6165 Y11.6361
G01 X-4.6044 Y11.6886
G01 X-4.5975 Y11.7277
G01 X-4.5912 Y11.7759
G01 X-4.5876 Y11.8208
G01 X-4.5860 Y11.8750
G01 X-4.5869 Y11.9145
G01 X-4.5900 Y11.9612
G01 X-4.5953 Y12.0077
G01 X-4.6044 Y12.0614
G01 X-4.6129 Y12.0996
G01 X-4.6250 Y12.1449
G01 X-4.6394 Y12.1894
G01 X-4.6572 Y12.2367
G01 X-4.6745 Y12.2762
G01 X-4.6953 Y12.3182
G01 X-4.7180 Y12.3591
G01 X-4.7428 Y12.3988
G01 X-4.7747 Y12.4446
G01 X-4.7979 Y12.4745
G01 X-4.8283 Y12.5102
G01 X-4.8654 Y12.5496
G01 X-4.8939 Y12.5769
G01 X-4.9306 Y12.6089
G01 X-4.9704 Y12.6403
G01 X-5.0039 Y12.6641
G01 X-5.0445 Y12.6902
G01 X-5.0838 Y12.7128
G01 X-5.1262 Y12.7345
G01 X-5.1682 Y12.7535
G01 X-5.2117 Y12.7707
G01 X-5.2560 Y12.7857
G01 X-5.3011 Y12.7985
G01 X-5.3536 Y12.8106
G01 X-5.3927 Y12.8175
G01 X-5.4409 Y12.8238
G01 X-5.4858 Y12.8274
G01 X-5.5400 Y12.8290
G01 X-5.5795 Y12.8281
G01 X-5.6262 Y12.8250
G01 X-5.6727 Y12.8197
G01 X-5.7264 Y12.8106
G01 X-5.7646 Y12.8021
G01 X-5.8099 Y12.7900
G01 X-5.8544 Y12.7756
G01 X-5.9017 Y12.7578
G01 X-5.9412 Y12.7405
G01 X-5.9832 Y12.7197
G01 X-6.0241 Y12.6970
G01 X-6.0638 Y12.6722
G01 X-6.1096 Y12.6403
G01 X-6.1395 Y12.6171
G01 X-6.1752 Y12.5867
G01 X-6.2146 Y12.5496
G01 X-6.2419 Y12.5211
G01 X-6.2739 Y12.4844
G01 X-6.3053 Y12.4446
G01 X-6.3291 Y12.4111
G01 X-6.3552 Y12.3705
G01 X-6.3778 Y12.3312
G01 X-6.3995 Y12.2888
G01 X-6.4185 Y12.2468
G01 X-6.4357 Y12.2033
G01 X-6.4507 Y12.1590
G01 X-6.4635 Y12.1139
G01 X-6.4756 Y12.0614
G01 X-6.4825 Y12.0223
G01 X-6.4888 Y11.9741
G01 X-6.4924 Y11.9292
G01 X-6.4940 Y11.8750
G01 X-6.4930 Y11.8356
G00 Z1.0000
G00 X-24.1469 Y10.2459
G01 F76.20
G01 Z-0.2000
G01 F200.00
G01 X-24.1641 Y10.2354
G01 X-24.4675 Y9.9320
G01 X-24.6279 Y9.5446
G01 X-24.6279 Y9.1254
G01 X-24.4675 Y8.7380
G01 X-24.1641 Y8.4346
G01 X-24.1347 Y8.4159
G01 X-24.1177 Y8.4036
G01 X-24.0967 Y8.3863
G01 X-24.0760 Y8.3670
G01 X-24.0567 Y8.3463
G01 X-24.0433 Y8.3302
G01 X-24.0271 Y8.3083
G01 X-24.0155 Y8.2908
G01 X-23.9980 Y8.2598
G01 X-23.9821 Y8.2250
G01 X-23.9715 Y8.1960
G01 X-23.9656 Y8.1759
G01 X-23.9607 Y8.1555
G01 X-23.9567 Y8.1349
G01 X-23.9538 Y8.1142
G01 X-23.9512 Y8.0786
G01 X-23.9512 Y8.0514
G01 X-23.9524 Y8.0305
G01 X-23.9546 Y8.0096
G01 X-23.9592 Y7.9814
G01 X-23.9656 Y7.9541
G01 X-23.9735 Y7.9281
G01 X-23.9863 Y7.8948
G01 X-23.9980 Y7.8702
G01 X-24.0148 Y7.8404
G01 X-24.0307 Y7.8166
G01 X-24.0514 Y7.7898
G01 X-24.0760 Y7.7630
G01 X-24.1014 Y7.7396
G01 X-24.1296 Y7.7177
G01 X-24.1469 Y7.7059
G01 X-24.1641 Y7.6954
G01 X-24.4675 Y7.3920
G01 X-24.6279 Y7.0046
G01 X-24.6279 Y6.5854
G01 X-24.4675 Y6.1980
G01 X-24.1710 Y5.9015
G01 X-23.7836 Y5.7411
G01 X-23.3644 Y5.7411
G01 X-22.9770 Y5.9015
G01 X-22.6805 Y6.1980
G01 X-22.5201 Y6.5854
G01 X-22.5201 Y7.0046
G01 X-22.6805 Y7.3920
G01 X-22.9839 Y7.6954
G01 X-23.0184 Y7.7177
G01 X-23.0352 Y7.7303
G01 X-23.0513 Y7.7437
G01 X-23.0667 Y7.7579
G01 X-23.0814 Y7.7728
G01 X-23.0954 Y7.7884
G01 X-23.1086 Y7.8047
G01 X-23.1291 Y7.8339
G01 X-23.1400 Y7.8518
G01 X-23.1500 Y7.8702
G01 X-23.1617 Y7.8948
G01 X-23.1745 Y7.9281
G01 X-23.1824 Y7.9541
G01 X-23.1873 Y7.9745
G01 X-23.1913 Y7.9951
G01 X-23.1956 Y8.0305
G01 X-23.1971 Y8.0650
G01 X-23.1956 Y8.0995
G01 X-23.1913 Y8.1349
G01 X-23.1873 Y8.1555
G01 X-23.1824 Y8.1759
G01 X-23.1745 Y8.2019
G01 X-23.1617 Y8.2352
G01 X-23.1500 Y8.2598
G01 X-23.1400 Y8.2782
G01 X-23.1291 Y8.2961
G01 X-23.1086 Y8.3253
G01 X-23.0966 Y8.3402
G01 X-23.0814 Y8.3572
G01 X-23.0667 Y8.3721
G01 X-23.0513 Y8.3863
G01 X-23.0352 Y8.3997
G01 X-23.0184 Y8.4123
G01 X-23.0011 Y8.4241
G01 X-22.9839 Y8.4346
G01 X-22.6805 Y8.7380
G01 X-22.5201 Y9.1254
G01 X-22.5201 Y9.5446
G01 X-22.6805 Y9.9320
G01 X-22.9839 Y10.2354
G01 X-23.0184 Y10.2577
G01 X-23.0352 Y10.2703
G01 X-23.0513 Y10.2837
G01 X-23.0667 Y10.2979
G01 X-23.0814 Y10.3128
G01 X-23.0954 Y10.3284
G01 X-23.1086 Y10.3447
G01 X-23.1291 Y10.3739
G01 X-23.1400 Y10.3918
G01 X-23.1500 Y10.4102
G01 X-23.1617 Y10.4348
G01 X-23.1745 Y10.4681
G01 X-23.1824 Y10.4941
G01 X-23.1873 Y10.5145
G01 X-23.1913 Y10.5351
G01 X-23.1956 Y10.5705
G01 X-23.1971 Y10.6050
G01 X-23.1956 Y10.6395
G01 X-23.1913 Y10.6749
G01 X-23.1873 Y10.6955
G01 X-23.1824 Y10.7159
G01 X-23.1745 Y10.7419
G01 X-23.1617 Y10.7752
G01 X-23.1500 Y10.7998
G01 X-23.1400 Y10.8182
G01 X-23.1291 Y10.8361
G01 X-23.1086 Y10.8653
G01 X-23.0966 Y10.8802
G01 X-23.0814 Y10.8972
G01 X-23.0667 Y10.9121
G01 X-23.0513 Y10.9263
G01 X-23.0352 Y10.9397
G01 X-23.0184 Y10.9523
G01 X-23.0011 Y10.9641
G01 X-22.9839 Y10.9746
G01 X-22.6805 Y11.2780
G01 X-22.5201 Y11.6654
G01 X-22.5201 Y12.0846
G01 X-22.6805 Y12.4720
G01 X-22.9839 Y12.7754
G01 X-23.0184 Y12.7977
G01 X-23.0352 Y12.8103
G01 X-23.0513 Y12.8237
G01 X-23.0667 Y12.8379
G01 X-23.0814 Y12.8528
G01 X-23.0954 Y12.8684
G01 X-23.1086 Y12.8847
G01 X-23.1291 Y12.9139
G01 X-23.1400 Y12.9318
G01 X-23.1500 Y12.9502
G01 X-23.1617 Y12.9748
G01 X-23.1745 Y13.0081
G01 X-23.1824 Y13.0341
G01 X-23.1873 Y13.0545
G01 X-23.1913 Y13.0751
G01 X-23.1956 Y13.1105
G01 X-23.1971 Y13.1450
G01 X-23.1956 Y13.1795
G01 X-23.1913 Y13.2149
G01 X-23.1873 Y13.2355
G01 X-23.1824 Y13.2559
G01 X-23.1745 Y13.2819
G01 X-23.1617 Y13.3152
G01 X-23.1500 Y13.3398
G01 X-23.1400 Y13.3582
G01 X-23.1291 Y13.3761
G01 X-23.1086 Y13.4053
G01 X-23.0966 Y13.4202
G01 X-23.0814 Y13.4372
G01 X-23.0667 Y13.4521
G01 X-23.0513 Y13.4663
G01 X-23.0352 Y13.4797
G01 X-23.0184 Y13.4923
G01 X-23.0011 Y13.5041
G01 X-22.9839 Y13.5146
G01 X-22.6805 Y13.8180
G01 X-22.5201 Y14.2054
G01 X-22.5201 Y14.6246
G01 X-22.6805 Y15.0120
G01 X-22.9839 Y15.3154
G01 X-23.0184 Y15.3377
G01 X-23.0352 Y15.3503
G01 X-23.0513 Y15.3637
G01 X-23.0667 Y15.3779
G01 X-23.0814 Y15.3928
G01 X-23.0954 Y15.4084
G01 X-23.1086 Y15.4247
G01 X-23.1291 Y15.4539
G01 X-23.1400 Y15.4718
G01 X-23.1500 Y15.4902
G01 X-23.1617 Y15.5148
G01 X-23.1745 Y15.5481
G01 X-23.1824 Y15.5741
G01 X-23.1873 Y15.5945
G01 X-23.1913 Y15.6151
G01 X-23.1956 Y15.6505
G01 X-23.1971 Y15.6850
G01 X-23.1956 Y15.7195
G01 X-23.1913 Y15.7549
G01 X-23.1873 Y15.7755
G01 X-23.1824 Y15.7959
G01 X-23.1745 Y15.8219
G01 X-23.1617 Y15.8552
G01 X-23.1500 Y15.8798
G01 X-23.1400 Y15.8982
G01 X-23.1291 Y15.9161
G01 X-23.1086 Y15.9453
G01 X-23.0966 Y15.9602
G01 X-23.0814 Y15.9772
G01 X-23.0667 Y15.9921
G01 X-23.0513 Y16.0063
G01 X-23.0352 Y16.0197
G01 X-23.0184 Y16.0323
G01 X-23.0011 Y16.0441
G01 X-22.9839 Y16.0546
G01 X-22.6805 Y16.3580
G01 X-22.5201 Y16.7454
G01 X-22.5201 Y17.1646
G01 X-22.6805 Y17.5520
G01 X-22.9839 Y17.8554
G01 X-23.0184 Y17.8777
G01 X-23.0352 Y17.8903
G01 X-23.0513 Y17.9037
G01 X-23.0667 Y17.9179
G01 X-23.0814 Y17.9328
G01 X-23.0954 Y17.9484
G01 X-23.1086 Y17.9647
G01 X-23.1291 Y17.9939
G01 X-23.1400 Y18.0118
G01 X-23.1500 Y18.0302
G01 X-23.1617 Y18.0548
G01 X-23.1745 Y18.0881
G01 X-23.1824 Y18.1141
G01 X-23.1873 Y18.1345
G01 X-23.1913 Y18.1551
G01 X-23.1956 Y18.1905
G01 X-23.1971 Y18.2250
G01 X-23.1956 Y18.2595
G01 X-23.1913 Y18.2949
G01 X-23.1873 Y18.3155
G01 X-23.1824 Y18.3359
G01 X-23.1745 Y18.3619
G01 X-23.1617 Y18.3952
G01 X-23.1500 Y18.4198
G01 X-23.1400 Y18.4382
G01 X-23.1291 Y18.4561
G01 X-23.1086 Y18.4853
G01 X-23.0966 Y18.5002
G01 X-23.0814 Y18.5172
G01 X-23.0667 Y18.5321
G01 X-23.0513 Y18.5463
G01 X-23.0352 Y18.5597
G01 X-23.0184 Y18.5723
G01 X-23.0011 Y18.5841
G01 X-22.9839 Y18.5946
G01 X-22.6805 Y18.8980
G01 X-22.5201 Y19.2854
G01 X-22.5201 Y19.7046
G01 X-22.6805 Y20.0920
G01 X-22.9770 Y20.3885
G01 X-23.3644 Y20.5489
G01 X-23.7836 Y20.5489
G01 X-24.1710 Y20.3885
G01 X-24.4675 Y20.0920
G01 X-24.6279 Y19.7046
G01 X-24.6279 Y19.2854
G01 X-24.4675 Y18.8980
G01 X-24.1641 Y18.5946
G01 X-24.1296 Y18.5723
G01 X-24.1128 Y18.5597
G01 X-24.0967 Y18.5463
G01 X-24.0813 Y18.5321
G01 X-24.0666 Y18.5172
G01 X-24.0433 Y18.4902
G01 X-24.0271 Y18.4683
G01 X-24.0080 Y18.4382
G01 X-23.9948 Y18.4135
G01 X-23.9807 Y18.3816
G01 X-23.9715 Y18.3560
G01 X-23.9620 Y18.3216
G01 X-23.9578 Y18.3011
G01 X-23.9546 Y18.2804
G01 X-23.9519 Y18.2533
G01 X-23.9509 Y18.2250
G01 X-23.9524 Y18.1905
G01 X-23.9567 Y18.1551
G01 X-23.9620 Y18.1284
G01 X-23.9715 Y18.0940
G01 X-23.9821 Y18.0650
G01 X-23.9980 Y18.0302
G01 X-24.0148 Y18.0004
G01 X-24.0271 Y17.9817
G01 X-24.0433 Y17.9598
G01 X-24.0567 Y17.9437
G01 X-24.0760 Y17.9230
G01 X-24.0967 Y17.9037
G01 X-24.1177 Y17.8864
G01 X-24.1347 Y17.8741
G01 X-24.1641 Y17.8554
G01 X-24.4675 Y17.5520
G01 X-24.6279 Y17.1646
G01 X-24.6279 Y16.7454
G01 X-24.4675 Y16.3580
G01 X-24.1641 Y16.0546
G01 X-24.1296 Y16.0323
G01 X-24.1128 Y16.0197
G01 X-24.0967 Y16.0063
G01 X-24.0813 Y15.9921
G01 X-24.0666 Y15.9772
G01 X-24.0433 Y15.9502
G01 X-24.0271 Y15.9283
G01 X-24.0080 Y15.8982
G01 X-23.9948 Y15.8735
G01 X-23.9807 Y15.8416
G01 X-23.9715 Y15.8160
G01 X-23.9620 Y15.7816
G01 X-23.9578 Y15.7611
G01 X-23.9546 Y15.7404
G01 X-23.9519 Y15.7133
G01 X-23.9509 Y15.6850
G01 X-23.9524 Y15.6505
G01 X-23.9567 Y15.6151
G01 X-23.9620 Y15.5884
G01 X-23.9715 Y15.5540
G01 X-23.9821 Y15.5250
G01 X-23.9980 Y15.4902
G01 X-24.0148 Y15.4604
G01 X-24.0271 Y15.4417
G01 X-24.0433 Y15.4198
G01 X-24.0567 Y15.4037
G01 X-24.0760 Y15.3830
G01 X-24.0967 Y15.3637
G01 X-24.1177 Y15.3464
G01 X-24.1347 Y15.3341
G01 X-24.1641 Y15.3154
G01 X-24.4675 Y15.0120
G01 X-24.6279 Y14.6246
G01 X-24.6279 Y14.2054
G01 X-24.4675 Y13.8180
G01 X-24.1641 Y13.5146
G01 X-24.1347 Y13.4959
G01 X-24.1028 Y13.4716
G01 X-24.0760 Y13.4470
G01 X-24.0526 Y13.4216
G01 X-24.0359 Y13.4007
G01 X-24.0155 Y13.3708
G01 X-23.9980 Y13.3398
G01 X-23.9863 Y13.3152
G01 X-23.9735 Y13.2819
G01 X-23.9656 Y13.2559
G01 X-23.9592 Y13.2286
G01 X-23.9538 Y13.1942
G01 X-23.9512 Y13.1586
G01 X-23.9512 Y13.1314
G01 X-23.9524 Y13.1105
G01 X-23.9546 Y13.0896
G01 X-23.9607 Y13.0545
G01 X-23.9656 Y13.0341
G01 X-23.9715 Y13.0140
G01 X-23.9821 Y12.9850
G01 X-23.9980 Y12.9502
G01 X-24.0148 Y12.9204
G01 X-24.0271 Y12.9017
G01 X-24.0433 Y12.8798
G01 X-24.0567 Y12.8637
G01 X-24.0760 Y12.8430
G01 X-24.0967 Y12.8237
G01 X-24.1177 Y12.8064
G01 X-24.1347 Y12.7941
G01 X-24.1641 Y12.7754
G01 X-24.4675 Y12.4720
G01 X-24.6279 Y12.0846
G01 X-24.6279 Y11.6654
G01 X-24.4675 Y11.2780
G01 X-24.1641 Y10.9746
G01 X-24.1347 Y10.9559
G01 X-24.1028 Y10.9316
G01 X-24.0760 Y10.9070
G01 X-24.0567 Y10.8863
G01 X-24.0433 Y10.8702
G01 X-24.0271 Y10.8483
G01 X-24.0155 Y10.8308
G01 X-23.9980 Y10.7998
G01 X-23.9889 Y10.7809
G01 X-23.9807 Y10.7616
G01 X-23.9715 Y10.7360
G01 X-23.9656 Y10.7159
G01 X-23.9607 Y10.6955
G01 X-23.9567 Y10.6749
G01 X-23.9524 Y10.6395
G01 X-23.9509 Y10.6050
G01 X-23.9519 Y10.5767
G01 X-23.9546 Y10.5496
G01 X-23.9578 Y10.5289
G01 X-23.9620 Y10.5084
G01 X-23.9715 Y10.4740
G01 X-23.9807 Y10.4484
G01 X-23.9948 Y10.4165
G01 X-24.0148 Y10.3804
G01 X-24.0307 Y10.3566
G01 X-24.0514 Y10.3298
G01 X-24.0760 Y10.3030
G01 X-24.0967 Y10.2837
G01 X-24.1223 Y10.2629
G01 X-24.1469 Y10.2459
G00 Z1.0000
G00 X-24.5270 Y9.2956
G01 F76.20
G01 Z-0.2000
G01 F200.00
G01 X-24.5240 Y9.2488
G01 X-24.5187 Y9.2023
G01 X-24.5096 Y9.1486
G01 X-24.5011 Y9.1104
G01 X-24.4890 Y9.0651
G01 X-24.4746 Y9.0206
G01 X-24.4568 Y8.9733
G01 X-24.4395 Y8.9338
G01 X-24.4187 Y8.8918
G01 X-24.3960 Y8.8509
G01 X-24.3712 Y8.8112
G01 X-24.3393 Y8.7654
G01 X-24.3161 Y8.7355
G01 X-24.2857 Y8.6998
G01 X-24.2486 Y8.6604
G01 X-24.2201 Y8.6331
G01 X-24.1834 Y8.6011
G01 X-24.1436 Y8.5697
G01 X-24.1101 Y8.5459
G01 X-24.0695 Y8.5198
G01 X-24.0302 Y8.4972
G01 X-23.9878 Y8.4755
G01 X-23.9458 Y8.4565
G01 X-23.9023 Y8.4393
G01 X-23.8580 Y8.4243
G01 X-23.8129 Y8.4115
G01 X-23.7604 Y8.3994
G01 X-23.7213 Y8.3925
G01 X-23.6731 Y8.3862
G01 X-23.6282 Y8.3826
G01 X-23.5740 Y8.3810
G01 X-23.5345 Y8.3819
G01 X-23.4878 Y8.3850
G01 X-23.4413 Y8.3903
G01 X-23.3876 Y8.3994
G01 X-23.3494 Y8.4079
G01 X-23.3041 Y8.4200
G01 X-23.2596 Y8.4344
G01 X-23.2123 Y8.4522
G01 X-23.1728 Y8.4695
G01 X-23.1308 Y8.4903
G01 X-23.0899 Y8.5130
G01 X-23.0502 Y8.5378
G01 X-23.0044 Y8.5697
G01 X-22.9745 Y8.5929
G01 X-22.9388 Y8.6233
G01 X-22.8994 Y8.6604
G01 X-22.8721 Y8.6889
G01 X-22.8401 Y8.7256
G01 X-22.8087 Y8.7654
G01 X-22.7849 Y8.7989
G01 X-22.7588 Y8.8395
G01 X-22.7362 Y8.8788
G01 X-22.7145 Y8.9212
G01 X-22.6955 Y8.9632
G01 X-22.6783 Y9.0067
G01 X-22.6633 Y9.0510
G01 X-22.6505 Y9.0961
G01 X-22.6384 Y9.1486
G01 X-22.6315 Y9.1877
G01 X-22.6252 Y9.2359
G01 X-22.6216 Y9.2808
G01 X-22.6200 Y9.3350
G01 X-22.6209 Y9.3745
G01 X-22.6240 Y9.4212
G01 X-22.6293 Y9.4677
G01 X-22.6384 Y9.5214
G01 X-22.6469 Y9.5596
G01 X-22.6590 Y9.6049
G01 X-22.6734 Y9.6494
G01 X-22.6912 Y9.6967
G01 X-22.7085 Y9.7362
G01 X-22.7293 Y9.7782
G01 X-22.7520 Y9.8191
G01 X-22.7768 Y9.8588
G01 X-22.8087 Y9.9046
G01 X-22.8319 Y9.9345
G01 X-22.8623 Y9.9702
G01 X-22.8994 Y10.0096
G01 X-22.9279 Y10.0369
G01 X-22.9646 Y10.0689
G01 X-23.0044 Y10.1003
G01 X-23.0379 Y10.1241
G01 X-23.0785 Y10.1502
G01 X-23.1178 Y10.1728
G01 X-23.1602 Y10.1945
G01 X-23.2022 Y10.2135
G01 X-23.2457 Y10.2307
G01 X-23.2900 Y10.2457
G01 X-23.3351 Y10.2585
G01 X-23.3876 Y10.2706
G01 X-23.4267 Y10.2775
G01 X-23.4749 Y10.2838
G01 X-23.5198 Y10.2874
G01 X-23.5740 Y10.2890
G01 X-23.6135 Y10.2881
G01 X-23.6602 Y10.2850
G01 X-23.7067 Y10.2797
G01 X-23.7604 Y10.2706
G01 X-23.7986 Y10.2621
G01 X-23.8439 Y10.2500
G01 X-23.8884 Y10.2356
G01 X-23.9357 Y10.2178
G01 X-23.9752 Y10.2005
G01 X-24.0172 Y10.1797
G01 X-24.0581 Y10.1570
G01 X-24.0978 Y10.1322
G01 X-24.1436 Y10.1003
G01 X-24.1735 Y10.0771
G01 X-24.2092 Y10.0467
G01 X-24.2486 Y10.0096
G01 X-24.2759 Y9.9811
G01 X-24.3079 Y9.9444
G01 X-24.3393 Y9.9046
G01 X-24.3631 Y9.8711
G01 X-24.3892 Y9.8305
G01 X-24.4118 Y9.7912
G01 X-24.4335 Y9.7488
G01 X-24.4525 Y9.7068
G01 X-24.4697 Y9.6633
G01 X-24.4847 Y9.6190
G01 X-24.4975 Y9.5739
G01 X-24.5096 Y9.5214
G01 X-24.5165 Y9.4823
G01 X-24.5228 Y9.4341
G01 X-24.5264 Y9.3892
G01 X-24.5280 Y9.3350
G01 X-24.5270 Y9.2956
G00 Z1.0000
G00 X-24.5270 Y6.7556
G01 F76.20
G01 Z-0.2000
G01 F200.00
G01 X-24.5240 Y6.7088
G01 X-24.5187 Y6.6623
G01 X-24.5096 Y6.6086
G01 X-24.5011 Y6.5704
G01 X-24.4890 Y6.5251
G01 X-24.4746 Y6.4806
G01 X-24.4568 Y6.4333
G01 X-24.4395 Y6.3938
G01 X-24.4187 Y6.3518
G01 X-24.3960 Y6.3109
G01 X-24.3712 Y6.2712
G01 X-24.3393 Y6.2254
G01 X-24.3161 Y6.1955
G01 X-24.2857 Y6.1598
G01 X-24.2486 Y6.1204
G01 X-24.2201 Y6.0931
G01 X-24.1834 Y6.0611
G01 X-24.1436 Y6.0297
G01 X-24.1101 Y6.0059
G01 X-24.0695 Y5.9798
G01 X-24.0302 Y5.9572
G01 X-23.9878 Y5.9355
G01 X-23.9458 Y5.9165
G01 X-23.9023 Y5.8993
G01 X-23.8580 Y5.8843
G01 X-23.8129 Y5.8715
G01 X-23.7604 Y5.8594
G01 X-23.7213 Y5.8525
G01 X-23.6731 Y5.8462
G01 X-23.6282 Y5.8426
G01 X-23.5740 Y5.8410
G01 X-23.5345 Y5.8419
G01 X-23.4878 Y5.8450
G01 X-23.4413 Y5.8503
G01 X-23.3876 Y5.8594
G01 X-23.3494 Y5.8679
G01 X-23.3041 Y5.8800
G01 X-23.2596 Y5.8944
G01 X-23.2123 Y5.9122
G01 X-23.1728 Y5.9295
G01 X-23.1308 Y5.9503
G01 X-23.0899 Y5.9730
G01 X-23.0502 Y5.9978
G01 X-23.0044 Y6.0297
G01 X-22.9745 Y6.0529
G01 X-22.9388 Y6.0833
G01 X-22.8994 Y6.1204
G01 X-22.8721 Y6.1489
G01 X-22.8401 Y6.1856
G01 X-22.8087 Y6.2254
G01 X-22.7849 Y6.2589
G01 X-22.7588 Y6.2995
G01 X-22.7362 Y6.3388
G01 X-22.7145 Y6.3812
G01 X-22.6955 Y6.4232
G01 X-22.6783 Y6.4667
G01 X-22.6633 Y6.5110
G01 X-22.6505 Y6.5561
G01 X-22.6384 Y6.6086
G01 X-22.6315 Y6.6477
G01 X-22.6252 Y6.6959
G01 X-22.6216 Y6.7408
G01 X-22.6200 Y6.7950
G01 X-22.6209 Y6.8345
G01 X-22.6240 Y6.8812
G01 X-22.6293 Y6.9277
G01 X-22.6384 Y6.9814
G01 X-22.6469 Y7.0196
G01 X-22.6590 Y7.0649
G01 X-22.6734 Y7.1094
G01 X-22.6912 Y7.1567
G01 X-22.7085 Y7.1962
G01 X-22.7293 Y7.2382
G01 X-22.7520 Y7.2791
G01 X-22.7768 Y7.3188
G01 X-22.8087 Y7.3646
G01 X-22.8319 Y7.3945
G01 X-22.8623 Y7.4302
G01 X-22.8994 Y7.4696
G01 X-22.9279 Y7.4969
G01 X-22.9646 Y7.5289
G01 X-23.0044 Y7.5603
G01 X-23.0379 Y7.5841
G01 X-23.0785 Y7.6102
G01 X-23.1178 Y7.6328
G01 X-23.1602 Y7.6545
G01 X-23.2022 Y7.6735
G01 X-23.2457 Y7.6907
G01 X-23.2900 Y7.7057
G01 X-23.3351 Y7.7185
G01 X-23.3876 Y7.7306
G01 X-23.4267 Y7.7375
G01 X-23.4749 Y7.7438
G01 X-23.5198 Y7.7474
G01 X-23.5740 Y7.7490
G01 X-23.6135 Y7.7481
G01 X-23.6602 Y7.7450
G01 X-23.7067 Y7.7397
G01 X-23.7604 Y7.7306
G01 X-23.7986 Y7.7221
G01 X-23.8439 Y7.7100
G01 X-23.8884 Y7.6956
G01 X-23.9357 Y7.6778
G01 X-23.9752 Y7.6605
G01 X-24.0172 Y7.6397
G01 X-24.0581 Y7.6170
G01 X-24.0978 Y7.5922
G01 X-24.1436 Y7.5603
G01 X-24.1735 Y7.5371
G01 X-24.2092 Y7.5067
G01 X-24.2486 Y7.4696
G01 X-24.2759 Y7.4411
G01 X-24.3079 Y7.4044
G01 X-24.3393 Y7.3646
G01 X-24.3631 Y7.3311
G01 X-24.3892 Y7.2905
G01 X-24.4118 Y7.2512
G01 X-24.4335 Y7.2088
G01 X-24.4525 Y7.1668
G01 X-24.4697 Y7.1233
G01 X-24.4847 Y7.0790
G01 X-24.4975 Y7.0339
G01 X-24.5096 Y6.9814
G01 X-24.5165 Y6.9423
G01 X-24.5228 Y6.8941
G01 X-24.5264 Y6.8492
G01 X-24.5280 Y6.7950
G01 X-24.5270 Y6.7556
G00 Z1.0000
G00 X-28.2288 Y7.3834
G01 F76.20
G01 Z-0.2000
G01 F200.00
G01 X-28.2253 Y7.3295
G01 X-28.2191 Y7.2759
G01 X-28.2088 Y7.2151
G01 X-28.1987 Y7.1699
G01 X-28.1847 Y7.1178
G01 X-28.1681 Y7.0664
G01 X-28.1476 Y7.0124
G01 X-28.1275 Y6.9664
G01 X-28.1035 Y6.9180
G01 X-28.0772 Y6.8708
G01 X-28.0486 Y6.8250
G01 X-28.0126 Y6.7734
G01 X-27.9849 Y6.7379
G01 X-27.9499 Y6.6968
G01 X-27.9078 Y6.6522
G01 X-27.8741 Y6.6200
G01 X-27.8321 Y6.5832
G01 X-27.7866 Y6.5474
G01 X-27.7472 Y6.5195
G01 X-27.7006 Y6.4896
G01 X-27.6550 Y6.4634
G01 X-27.6062 Y6.4385
G01 X-27.5577 Y6.4166
G01 X-27.5075 Y6.3969
G01 X-27.4563 Y6.3796
G01 X-27.4044 Y6.3648
G01 X-27.3449 Y6.3512
G01 X-27.2987 Y6.3431
G01 X-27.2434 Y6.3359
G01 X-27.1913 Y6.3318
G01 X-27.1300 Y6.3300
G01 X-27.0834 Y6.3311
G01 X-27.0295 Y6.3347
G01 X-26.9759 Y6.3409
G01 X-26.9151 Y6.3512
G01 X-26.8699 Y6.3613
G01 X-26.8178 Y6.3753
G01 X-26.7664 Y6.3919
G01 X-26.7124 Y6.4124
G01 X-26.6664 Y6.4325
G01 X-26.6180 Y6.4565
G01 X-26.5708 Y6.4828
G01 X-26.5250 Y6.5114
G01 X-26.4734 Y6.5474
G01 X-26.4379 Y6.5751
G01 X-26.3968 Y6.6101
G01 X-26.3522 Y6.6522
G01 X-26.3200 Y6.6859
G01 X-26.2832 Y6.7279
G01 X-26.2474 Y6.7734
G01 X-26.2195 Y6.8128
G01 X-26.1896 Y6.8594
G01 X-26.1634 Y6.9050
G01 X-26.1385 Y6.9538
G01 X-26.1166 Y7.0023
G01 X-26.0969 Y7.0525
G01 X-26.0796 Y7.1037
G01 X-26.0648 Y7.1556
G01 X-26.0512 Y7.2151
G01 X-26.0431 Y7.2613
G01 X-26.0359 Y7.3166
G01 X-26.0318 Y7.3687
G01 X-26.0300 Y7.4300
G01 X-26.0311 Y7.4766
G01 X-26.0347 Y7.5305
G01 X-26.0409 Y7.5841
G01 X-26.0512 Y7.6449
G01 X-26.0613 Y7.6901
G01 X-26.0753 Y7.7422
G01 X-26.0919 Y7.7936
G01 X-26.1124 Y7.8476
G01 X-26.1325 Y7.8936
G01 X-26.1565 Y7.9420
G01 X-26.1828 Y7.9892
G01 X-26.2114 Y8.0350
G01 X-26.2474 Y8.0866
G01 X-26.2751 Y8.1221
G01 X-26.3101 Y8.1632
G01 X-26.3522 Y8.2078
G01 X-26.3859 Y8.2400
G01 X-26.4279 Y8.2768
G01 X-26.4734 Y8.3126
G01 X-26.5128 Y8.3405
G01 X-26.5594 Y8.3704
G01 X-26.6050 Y8.3966
G01 X-26.6538 Y8.4215
G01 X-26.7023 Y8.4434
G01 X-26.7525 Y8.4631
G01 X-26.8037 Y8.4804
G01 X-26.8556 Y8.4952
G01 X-26.9151 Y8.5088
G01 X-26.9613 Y8.5169
G01 X-27.0166 Y8.5241
G01 X-27.0687 Y8.5282
G01 X-27.1300 Y8.5300
G01 X-27.1766 Y8.5289
G01 X-27.2305 Y8.5253
G01 X-27.2841 Y8.5191
G01 X-27.3449 Y8.5088
G01 X-27.3901 Y8.4987
G01 X-27.4422 Y8.4847
G01 X-27.4936 Y8.4681
G01 X-27.5476 Y8.4476
G01 X-27.5936 Y8.4275
G01 X-27.6420 Y8.4035
G01 X-27.6892 Y8.3772
G01 X-27.7350 Y8.3486
G01 X-27.7866 Y8.3126
G01 X-27.8221 Y8.2849
G01 X-27.8632 Y8.2499
G01 X-27.9078 Y8.2078
G01 X-27.9400 Y8.1741
G01 X-27.9768 Y8.1321
G01 X-28.0126 Y8.0866
G01 X-28.0405 Y8.0472
G01 X-28.0704 Y8.0006
G01 X-28.0966 Y7.9550
G01 X-28.1215 Y7.9062
G01 X-28.1434 Y7.8577
G01 X-28.1631 Y7.8075
G01 X-28.1804 Y7.7563
G01 X-28.1952 Y7.7044
G01 X-28.2088 Y7.6449
G01 X-28.2169 Y7.5987
G01 X-28.2241 Y7.5434
G01 X-28.2282 Y7.4913
G01 X-28.2300 Y7.4300
G01 X-28.2288 Y7.3834
G00 Z1.0000
G00 X-28.2288 Y9.9234
G01 F76.20
G01 Z-0.2000
G01 F200.00
G01 X-28.2253 Y9.8695
G01 X-28.2191 Y9.8159
G01 X-28.2088 Y9.7551
G01 X-28.1987 Y9.7099
G01 X-28.1847 Y9.6578
G01 X-28.1681 Y9.6064
G01 X-28.1476 Y9.5524
G01 X-28.1275 Y9.5064
G01 X-28.1035 Y9.4580
G01 X-28.0772 Y9.4108
G01 X-28.0486 Y9.3650
G01 X-28.0126 Y9.3134
G01 X-27.9849 Y9.2779
G01 X-27.9499 Y9.2368
G01 X-27.9078 Y9.1922
G01 X-27.8741 Y9.1600
G01 X-27.8321 Y9.1232
G01 X-27.7866 Y9.0874
G01 X-27.7472 Y9.0595
G01 X-27.7006 Y9.0296
G01 X-27.6550 Y9.0034
G01 X-27.6062 Y8.9785
G01 X-27.5577 Y8.9566
G01 X-27.5075 Y8.9369
G01 X-27.4563 Y8.9196
G01 X-27.4044 Y8.9048
G01 X-27.3449 Y8.8912
G01 X-27.2987 Y8.8831
G01 X-27.2434 Y8.8759
G01 X-27.1913 Y8.8718
G01 X-27.1300 Y8.8700
G01 X-27.0834 Y8.8711
G01 X-27.0295 Y8.8747
G01 X-26.9759 Y8.8809
G01 X-26.9151 Y8.8912
G01 X-26.8699 Y8.9013
G01 X-26.8178 Y8.9153
G01 X-26.7664 Y8.9319
G01 X-26.7124 Y8.9524
G01 X-26.6664 Y8.9725
G01 X-26.6180 Y8.9965
G01 X-26.5708 Y9.0228
G01 X-26.5250 Y9.0514
G01 X-26.4734 Y9.0874
G01 X-26.4379 Y9.1151
G01 X-26.3968 Y9.1501
G01 X-26.3522 Y9.1922
G01 X-26.3200 Y9.2259
G01 X-26.2832 Y9.2679
G01 X-26.2474 Y9.3134
G01 X-26.2195 Y9.3528
G01 X-26.1896 Y9.3994
G01 X-26.1634 Y9.4450
G01 X-26.1385 Y9.4938
G01 X-26.1166 Y9.5423
G01 X-26.0969 Y9.5925
G01 X-26.0796 Y9.6437
G01 X-26.0648 Y9.6956
G01 X-26.0512 Y9.7551
G01 X-26.0431 Y9.8013
G01 X-26.0359 Y9.8566
G01 X-26.0318 Y9.9087
G01 X-26.0300 Y9.9700
G01 X-26.0311 Y10.0166
G01 X-26.0347 Y10.0705
G01 X-26.0409 Y10.1241
G01 X-26.0512 Y10.1849
G01 X-26.0613 Y10.2301
G01 X-26.0753 Y10.2822
G01 X-26.0919 Y10.3336
G01 X-26.1124 Y10.3876
G01 X-26.1325 Y10.4336
G01 X-26.1565 Y10.4820
G01 X-26.1828 Y10.5292
G01 X-26.2114 Y10.5750
G01 X-26.2474 Y10.6266
G01 X-26.2751 Y10.6621
G01 X-26.3101 Y10.7032
G01 X-26.3522 Y10.7478
G01 X-26.3859 Y10.7800
G01 X-26.4279 Y10.8168
G01 X-26.4734 Y10.8526
G01 X-26.5128 Y10.8805
G01 X-26.5594 Y10.9104
G01 X-26.6050 Y10.9366
G01 X-26.6538 Y10.9615
G01 X-26.7023 Y10.9834
G01 X-26.7525 Y11.0031
G01 X-26.8037 Y11.0204
G01 X-26.8556 Y11.0352
G01 X-26.9151 Y11.0488
G01 X-26.9613 Y11.0569
G01 X-27.0166 Y11.0641
G01 X-27.0687 Y11.0682
G01 X-27.1300 Y11.0700
G01 X-27.1766 Y11.0689
G01 X-27.2305 Y11.0653
G01 X-27.2841 Y11.0591
G01 X-27.3449 Y11.0488
G01 X-27.3901 Y11.0387
G01 X-27.4422 Y11.0247
G01 X-27.4936 Y11.0081
G01 X-27.5476 Y10.9876
G01 X-27.5936 Y10.9675
G01 X-27.6420 Y10.9435
G01 X-27.6892 Y10.9172
G01 X-27.7350 Y10.8886
G01 X-27.7866 Y10.8526
G01 X-27.8221 Y10.8249
G01 X-27.8632 Y10.7899
G01 X-27.9078 Y10.7478
G01 X-27.9400 Y10.7141
G01 X-27.9768 Y10.6721
G01 X-28.0126 Y10.6266
G01 X-28.0405 Y10.5872
G01 X-28.0704 Y10.5406
G01 X-28.0966 Y10.4950
G01 X-28.1215 Y10.4462
G01 X-28.1434 Y10.3977
G01 X-28.1631 Y10.3475
G01 X-28.1804 Y10.2963
G01 X-28.1952 Y10.2444
G01 X-28.2088 Y10.1849
G01 X-28.2169 Y10.1387
G01 X-28.2241 Y10.0834
G01 X-28.2282 Y10.0313
G01 X-28.2300 Y9.9700
G01 X-28.2288 Y9.9234
G00 Z1.0000
G00 X-28.2288 Y12.4634
G01 F76.20
G01 Z-0.2000
G01 F200.00
G01 X-28.2253 Y12.4095
G01 X-28.2191 Y12.3559
G01 X-28.2088 Y12.2951
G01 X-28.1987 Y12.2499
G01 X-28.1847 Y12.1978
G01 X-28.1681 Y12.1464
G01 X-28.1476 Y12.0924
G01 X-28.1275 Y12.0464
G01 X-28.1035 Y11.9980
G01 X-28.0772 Y11.9508
G01 X-28.0486 Y11.9050
G01 X-28.0126 Y11.8534
G01 X-27.9849 Y11.8179
G01 X-27.9499 Y11.7768
G01 X-27.9078 Y11.7322
G01 X-27.8741 Y11.7000
G01 X-27.8321 Y11.6632
G01 X-27.7866 Y11.6274
G01 X-27.7472 Y11.5995
G01 X-27.7006 Y11.5696
G01 X-27.6550 Y11.5434
G01 X-27.6062 Y11.5185
G01 X-27.5577 Y11.4966
G01 X-27.5075 Y11.4769
G01 X-27.4563 Y11.4596
G01 X-27.4044 Y11.4448
G01 X-27.3449 Y11.4312
G01 X-27.2987 Y11.4231
G01 X-27.2434 Y11.4159
G01 X-27.1913 Y11.4118
G01 X-27.1300 Y11.4100
G01 X-27.0834 Y11.4111
G01 X-27.0295 Y11.4147
G01 X-26.9759 Y11.4209
G01 X-26.9151 Y11.4312
G01 X-26.8699 Y11.4413
G01 X-26.8178 Y11.4553
G01 X-26.7664 Y11.4719
G01 X-26.7124 Y11.4924
G01 X-26.6664 Y11.5125
G01 X-26.6180 Y11.5365
G01 X-26.5708 Y11.5628
G01 X-26.5250 Y11.5914
G01 X-26.4734 Y11.6274
G01 X-26.4379 Y11.6551
G01 X-26.3968 Y11.6901
G01 X-26.3522 Y11.7322
G01 X-26.3200 Y11.7659
G01 X-26.2832 Y11.8079
G01 X-26.2474 Y11.8534
G01 X-26.2195 Y11.8928
G01 X-26.1896 Y11.9394
G01 X-26.1634 Y11.9850
G01 X-26.1385 Y12.0338
G01 X-26.1166 Y12.0823
G01 X-26.0969 Y12.1325
G01 X-26.0796 Y12.1837
G01 X-26.0648 Y12.2356
G01 X-26.0512 Y12.2951
G01 X-26.0431 Y12.3413
G01 X-26.0359 Y12.3966
G01 X-26.0318 Y12.4487
G01 X-26.0300 Y12.5100
G01 X-26.0311 Y12.5566
G01 X-26.0347 Y12.6105
G01 X-26.0409 Y12.6641
G01 X-26.0512 Y12.7249
G01 X-26.0613 Y12.7701
G01 X-26.0753 Y12.8222
G01 X-26.0919 Y12.8736
G01 X-26.1124 Y12.9276
G01 X-26.1325 Y12.9736
G01 X-26.1565 Y13.0220
G01 X-26.1828 Y13.0692
G01 X-26.2114 Y13.1150
G01 X-26.2474 Y13.1666
G01 X-26.2751 Y13.2021
G01 X-26.3101 Y13.2432
G01 X-26.3522 Y13.2878
G01 X-26.3859 Y13.3200
G01 X-26.4279 Y13.3568
G01 X-26.4734 Y13.3926
G01 X-26.5128 Y13.4205
G01 X-26.5594 Y13.4504
G01 X-26.6050 Y13.4766
G01 X-26.6538 Y13.5015
G01 X-26.7023 Y13.5234
G01 X-26.7525 Y13.5431
G01 X-26.8037 Y13.5604
G01 X-26.8556 Y13.5752
G01 X-26.9151 Y13.5888
G01 X-26.9613 Y13.5969
G01 X-27.0166 Y13.6041
G01 X-27.0687 Y13.6082
G01 X-27.1300 Y13.6100
G01 X-27.1766 Y13.6089
G01 X-27.2305 Y13.6053
G01 X-27.2841 Y13.5991
G01 X-27.3449 Y13.5888
G01 X-27.3901 Y13.5787
G01 X-27.4422 Y13.5647
G01 X-27.4936 Y13.5481
G01 X-27.5476 Y13.5276
G01 X-27.5936 Y13.5075
G01 X-27.6420 Y13.4835
G01 X-27.6892 Y13.4572
G01 X-27.7350 Y13.4286
G01 X-27.7866 Y13.3926
G01 X-27.8221 Y13.3649
G01 X-27.8632 Y13.3299
G01 X-27.9078 Y13.2878
G01 X-27.9400 Y13.2541
G01 X-27.9768 Y13.2121
G01 X-28.0126 Y13.1666
G01 X-28.0405 Y13.1272
G01 X-28.0704 Y13.0806
G01 X-28.0966 Y13.0350
G01 X-28.1215 Y12.9862
G01 X-28.1434 Y12.9377
G01 X-28.1631 Y12.8875
G01 X-28.1804 Y12.8363
G01 X-28.1952 Y12.7844
G01 X-28.2088 Y12.7249
G01 X-28.2169 Y12.6787
G01 X-28.2241 Y12.6234
G01 X-28.2282 Y12.5713
G01 X-28.2300 Y12.5100
G01 X-28.2288 Y12.4634
G00 Z1.0000
G00 X-28.2288 Y15.0034
G01 F76.20
G01 Z-0.2000
G01 F200.00
G01 X-28.2253 Y14.9495
G01 X-28.2191 Y14.8959
G01 X-28.2088 Y14.8351
G01 X-28.1987 Y14.7899
G01 X-28.1847 Y14.7378
G01 X-28.1681 Y14.6864
G01 X-28.1476 Y14.6324
G01 X-28.1275 Y14.5864
G01 X-28.1035 Y14.5380
G01 X-28.0772 Y14.4908
G01 X-28.0486 Y14.4450
G01 X-28.0126 Y14.3934
G01 X-27.9849 Y14.3579
G01 X-27.9499 Y14.3168
G01 X-27.9078 Y14.2722
G01 X-27.8741 Y14.2400
G01 X-27.8321 Y14.2032
G01 X-27.7866 Y14.1674
G01 X-27.7472 Y14.1395
G01 X-27.7006 Y14.1096
G01 X-27.6550 Y14.0834
G01 X-27.6062 Y14.0585
G01 X-27.5577 Y14.0366
G01 X-27.5075 Y14.0169
G01 X-27.4563 Y13.9996
G01 X-27.4044 Y13.9848
G01 X-27.3449 Y13.9712
G01 X-27.2987 Y13.9631
G01 X-27.2434 Y13.9559
G01 X-27.1913 Y13.9518
G01 X-27.1300 Y13.9500
G01 X-27.0834 Y13.9511
G01 X-27.0295 Y13.9547
G01 X-26.9759 Y13.9609
G01 X-26.9151 Y13.9712
G01 X-26.8699 Y13.9813
G01 X-26.8178 Y13.9953
G01 X-26.7664 Y14.0119
G01 X-26.7124 Y14.0324
G01 X-26.6664 Y14.0525
G01 X-26.6180 Y14.0765
G01 X-26.5708 Y14.1028
G01 X-26.5250 Y14.1314
G01 X-26.4734 Y14.1674
G01 X-26.4379 Y14.1951
G01 X-26.3968 Y14.2301
G01 X-26.3522 Y14.2722
G01 X-26.3200 Y14.3059
G01 X-26.2832 Y14.3479
G01 X-26.2474 Y14.3934
G01 X-26.2195 Y14.4328
G01 X-26.1896 Y14.4794
G01 X-26.1634 Y14.5250
G01 X-26.1385 Y14.5738
G01 X-26.1166 Y14.6223
G01 X-26.0969 Y14.6725
G01 X-26.0796 Y14.7237
G01 X-26.0648 Y14.7756
G01 X-26.0512 Y14.8351
G01 X-26.0431 Y14.8813
G01 X-26.0359 Y14.9366
G01 X-26.0318 Y14.9887
G01 X-26.0300 Y15.0500
G01 X-26.0311 Y15.0966
G01 X-26.0347 Y15.1505
G01 X-26.0409 Y15.2041
G01 X-26.0512 Y15.2649
G01 X-26.0613 Y15.3101
G01 X-26.0753 Y15.3622
G01 X-26.0919 Y15.4136
G01 X-26.1124 Y15.4676
G01 X-26.1325 Y15.5136
G01 X-26.1565 Y15.5620
G01 X-26.1828 Y15.6092
G01 X-26.2114 Y15.6550
G01 X-26.2474 Y15.7066
G01 X-26.2751 Y15.7421
G01 X-26.3101 Y15.7832
G01 X-26.3522 Y15.8278
G01 X-26.3859 Y15.8600
G01 X-26.4279 Y15.8968
G01 X-26.4734 Y15.9326
G01 X-26.5128 Y15.9605
G01 X-26.5594 Y15.9904
G01 X-26.6050 Y16.0166
G01 X-26.6538 Y16.0415
G01 X-26.7023 Y16.0634
G01 X-26.7525 Y16.0831
G01 X-26.8037 Y16.1004
G01 X-26.8556 Y16.1152
G01 X-26.9151 Y16.1288
G01 X-26.9613 Y16.1369
G01 X-27.0166 Y16.1441
G01 X-27.0687 Y16.1482
G01 X-27.1300 Y16.1500
G01 X-27.1766 Y16.1489
G01 X-27.2305 Y16.1453
G01 X-27.2841 Y16.1391
G01 X-27.3449 Y16.1288
G01 X-27.3901 Y16.1187
G01 X-27.4422 Y16.1047
G01 X-27.4936 Y16.0881
G01 X-27.5476 Y16.0676
G01 X-27.5936 Y16.0475
G01 X-27.6420 Y16.0235
G01 X-27.6892 Y15.9972
G01 X-27.7350 Y15.9686
G01 X-27.7866 Y15.9326
G01 X-27.8221 Y15.9049
G01 X-27.8632 Y15.8699
G01 X-27.9078 Y15.8278
G01 X-27.9400 Y15.7941
G01 X-27.9768 Y15.7521
G01 X-28.0126 Y15.7066
G01 X-28.0405 Y15.6672
G01 X-28.0704 Y15.6206
G01 X-28.0966 Y15.5750
G01 X-28.1215 Y15.5262
G01 X-28.1434 Y15.4777
G01 X-28.1631 Y15.4275
G01 X-28.1804 Y15.3763
G01 X-28.1952 Y15.3244
G01 X-28.2088 Y15.2649
G01 X-28.2169 Y15.2187
G01 X-28.2241 Y15.1634
G01 X-28.2282 Y15.1113
G01 X-28.2300 Y15.0500
G01 X-28.2288 Y15.0034
G00 Z1.0000
G00 X-28.2288 Y17.5434
G01 F76.20
G01 Z-0.2000
G01 F200.00
G01 X-28.2253 Y17.4895
G01 X-28.2191 Y17.4359
G01 X-28.2088 Y17.3751
G01 X-28.1987 Y17.3299
G01 X-28.1847 Y17.2778
G01 X-28.1681 Y17.2264
G01 X-28.1476 Y17.1724
G01 X-28.1275 Y17.1264
G01 X-28.1035 Y17.0780
G01 X-28.0772 Y17.0308
G01 X-28.0486 Y16.9850
G01 X-28.0126 Y16.9334
G01 X-27.9849 Y16.8979
G01 X-27.9499 Y16.8568
G01 X-27.9078 Y16.8122
G01 X-27.8741 Y16.7800
G01 X-27.8321 Y16.7432
G01 X-27.7866 Y16.7074
G01 X-27.7472 Y16.6795
G01 X-27.7006 Y16.6496
G01 X-27.6550 Y16.6234
G01 X-27.6062 Y16.5985
G01 X-27.5577 Y16.5766
G01 X-27.5075 Y16.5569
G01 X-27.4563 Y16.5396
G01 X-27.4044 Y16.5248
G01 X-27.3449 Y16.5112
G01 X-27.2987 Y16.5031
G01 X-27.2434 Y16.4959
G01 X-27.1913 Y16.4918
G01 X-27.1300 Y16.4900
G01 X-27.0834 Y16.4911
G01 X-27.0295 Y16.4947
G01 X-26.9759 Y16.5009
G01 X-26.9151 Y16.5112
G01 X-26.8699 Y16.5213
G01 X-26.8178 Y16.5353
G01 X-26.7664 Y16.5519
G01 X-26.7124 Y16.5724
G01 X-26.6664 Y16.5925
G01 X-26.6180 Y16.6165
G01 X-26.5708 Y16.6428
G01 X-26.5250 Y16.6714
G01 X-26.4734 Y16.7074
G01 X-26.4379 Y16.7351
G01 X-26.3968 Y16.7701
G01 X-26.3522 Y16.8122
G01 X-26.3200 Y16.8459
G01 X-26.2832 Y16.8879
G01 X-26.2474 Y16.9334
G01 X-26.2195 Y16.9728
G01 X-26.1896 Y17.0194
G01 X-26.1634 Y17.0650
G01 X-26.1385 Y17.1138
G01 X-26.1166 Y17.1623
G01 X-26.0969 Y17.2125
G01 X-26.0796 Y17.2637
G01 X-26.0648 Y17.3156
G01 X-26.0512 Y17.3751
G01 X-26.0431 Y17.4213
G01 X-26.0359 Y17.4766
G01 X-26.0318 Y17.5287
G01 X-26.0300 Y17.5900
G01 X-26.0311 Y17.6366
G01 X-26.0347 Y17.6905
G01 X-26.0409 Y17.7441
G01 X-26.0512 Y17.8049
G01 X-26.0613 Y17.8501
G01 X-26.0753 Y17.9022
G01 X-26.0919 Y17.9536
G01 X-26.1124 Y18.0076
G01 X-26.1325 Y18.0536
G01 X-26.1565 Y18.1020
G01 X-26.1828 Y18.1492
G01 X-26.2114 Y18.1950
G01 X-26.2474 Y18.2466
G01 X-26.2751 Y18.2821
G01 X-26.3101 Y18.3232
G01 X-26.3522 Y18.3678
G01 X-26.3859 Y18.4000
G01 X-26.4279 Y18.4368
G01 X-26.4734 Y18.4726
G01 X-26.5128 Y18.5005
G01 X-26.5594 Y18.5304
G01 X-26.6050 Y18.5566
G01 X-26.6538 Y18.5815
G01 X-26.7023 Y18.6034
G01 X-26.7525 Y18.6231
G01 X-26.8037 Y18.6404
G01 X-26.8556 Y18.6552
G01 X-26.9151 Y18.6688
G01 X-26.9613 Y18.6769
G01 X-27.0166 Y18.6841
G01 X-27.0687 Y18.6882
G01 X-27.1300 Y18.6900
G01 X-27.1766 Y18.6889
G01 X-27.2305 Y18.6853
G01 X-27.2841 Y18.6791
G01 X-27.3449 Y18.6688
G01 X-27.3901 Y18.6587
G01 X-27.4422 Y18.6447
G01 X-27.4936 Y18.6281
G01 X-27.5476 Y18.6076
G01 X-27.5936 Y18.5875
G01 X-27.6420 Y18.5635
G01 X-27.6892 Y18.5372
G01 X-27.7350 Y18.5086
G01 X-27.7866 Y18.4726
G01 X-27.8221 Y18.4449
G01 X-27.8632 Y18.4099
G01 X-27.9078 Y18.3678
G01 X-27.9400 Y18.3341
G01 X-27.9768 Y18.2921
G01 X-28.0126 Y18.2466
G01 X-28.0405 Y18.2072
G01 X-28.0704 Y18.1606
G01 X-28.0966 Y18.1150
G01 X-28.1215 Y18.0662
G01 X-28.1434 Y18.0177
G01 X-28.1631 Y17.9675
G01 X-28.1804 Y17.9163
G01 X-28.1952 Y17.8644
G01 X-28.2088 Y17.8049
G01 X-28.2169 Y17.7587
G01 X-28.2241 Y17.7034
G01 X-28.2282 Y17.6513
G01 X-28.2300 Y17.5900
G01 X-28.2288 Y17.5434
G00 Z1.0000
G00 X-28.2288 Y20.0834
G01 F76.20
G01 Z-0.2000
G01 F200.00
G01 X-28.2253 Y20.0295
G01 X-28.2191 Y19.9759
G01 X-28.2088 Y19.9151
G01 X-28.1987 Y19.8699
G01 X-28.1847 Y19.8178
G01 X-28.1681 Y19.7664
G01 X-28.1476 Y19.7124
G01 X-28.1275 Y19.6664
G01 X-28.1035 Y19.6180
G01 X-28.0772 Y19.5708
G01 X-28.0486 Y19.5250
G01 X-28.0126 Y19.4734
G01 X-27.9849 Y19.4379
G01 X-27.9499 Y19.3968
G01 X-27.9078 Y19.3522
G01 X-27.8741 Y19.3200
G01 X-27.8321 Y19.2832
G01 X-27.7866 Y19.2474
G01 X-27.7472 Y19.2195
G01 X-27.7006 Y19.1896
G01 X-27.6550 Y19.1634
G01 X-27.6062 Y19.1385
G01 X-27.5577 Y19.1166
G01 X-27.5075 Y19.0969
G01 X-27.4563 Y19.0796
G01 X-27.4044 Y19.0648
G01 X-27.3449 Y19.0512
G01 X-27.2987 Y19.0431
G01 X-27.2434 Y19.0359
G01 X-27.1913 Y19.0318
G01 X-27.1300 Y19.0300
G01 X-27.0834 Y19.0311
G01 X-27.0295 Y19.0347
G01 X-26.9759 Y19.0409
G01 X-26.9151 Y19.0512
G01 X-26.8699 Y19.0613
G01 X-26.8178 Y19.0753
G01 X-26.7664 Y19.0919
G01 X-26.7124 Y19.1124
G01 X-26.6664 Y19.1325
G01 X-26.6180 Y19.1565
G01 X-26.5708 Y19.1828
G01 X-26.5250 Y19.2114
G01 X-26.4734 Y19.2474
G01 X-26.4379 Y19.2751
G01 X-26.3968 Y19.3101
G01 X-26.3522 Y19.3522
G01 X-26.3200 Y19.3859
G01 X-26.2832 Y19.4279
G01 X-26.2474 Y19.4734
G01 X-26.2195 Y19.5128
G01 X-26.1896 Y19.5594
G01 X-26.1634 Y19.6050
G01 X-26.1385 Y19.6538
G01 X-26.1166 Y19.7023
G01 X-26.0969 Y19.7525
G01 X-26.0796 Y19.8037
G01 X-26.0648 Y19.8556
G01 X-26.0512 Y19.9151
G01 X-26.0431 Y19.9613
G01 X-26.0359 Y20.0166
G01 X-26.0318 Y20.0687
G01 X-26.0300 Y20.1300
G01 X-26.0311 Y20.1766
G01 X-26.0347 Y20.2305
G01 X-26.0409 Y20.2841
G01 X-26.0512 Y20.3449
G01 X-26.0613 Y20.3901
G01 X-26.0753 Y20.4422
G01 X-26.0919 Y20.4936
G01 X-26.1124 Y20.5476
G01 X-26.1325 Y20.5936
G01 X-26.1565 Y20.6420
G01 X-26.1828 Y20.6892
G01 X-26.2114 Y20.7350
G01 X-26.2474 Y20.7866
G01 X-26.2751 Y20.8221
G01 X-26.3101 Y20.8632
G01 X-26.3522 Y20.9078
G01 X-26.3859 Y20.9400
G01 X-26.4279 Y20.9768
G01 X-26.4734 Y21.0126
G01 X-26.5128 Y21.0405
G01 X-26.5594 Y21.0704
G01 X-26.6050 Y21.0966
G01 X-26.6538 Y21.1215
G01 X-26.7023 Y21.1434
G01 X-26.7525 Y21.1631
G01 X-26.8037 Y21.1804
G01 X-26.8556 Y21.1952
G01 X-26.9151 Y21.2088
G01 X-26.9613 Y21.2169
G01 X-27.0166 Y21.2241
G01 X-27.0687 Y21.2282
G01 X-27.1300 Y21.2300
G01 X-27.1766 Y21.2289
G01 X-27.2305 Y21.2253
G01 X-27.2841 Y21.2191
G01 X-27.3449 Y21.2088
G01 X-27.3901 Y21.1987
G01 X-27.4422 Y21.1847
G01 X-27.4936 Y21.1681
G01 X-27.5476 Y21.1476
G01 X-27.5936 Y21.1275
G01 X-27.6420 Y21.1035
G01 X-27.6892 Y21.0772
G01 X-27.7350 Y21.0486
G01 X-27.7866 Y21.0126
G01 X-27.8221 Y20.9849
G01 X-27.8632 Y20.9499
G01 X-27.9078 Y20.9078
G01 X-27.9400 Y20.8741
G01 X-27.9768 Y20.8321
G01 X-28.0126 Y20.7866
G01 X-28.0405 Y20.7472
G01 X-28.0704 Y20.7006
G01 X-28.0966 Y20.6550
G01 X-28.1215 Y20.6062
G01 X-28.1434 Y20.5577
G01 X-28.1631 Y20.5075
G01 X-28.1804 Y20.4563
G01 X-28.1952 Y20.4044
G01 X-28.2088 Y20.3449
G01 X-28.2169 Y20.2987
G01 X-28.2241 Y20.2434
G01 X-28.2282 Y20.1913
G01 X-28.2300 Y20.1300
G01 X-28.2288 Y20.0834
G00 Z1.0000
G00 X-28.2288 Y22.6234
G01 F76.20
G01 Z-0.2000
G01 F200.00
G01 X-28.2239 Y22.5549
G01 X-28.2169 Y22.5013
G01 X-28.2073 Y22.4482
G01 X-28.1952 Y22.3956
G01 X-28.1804 Y22.3437
G01 X-28.1631 Y22.2925
G01 X-28.1476 Y22.2524
G01 X-28.1275 Y22.2064
G01 X-28.1035 Y22.1580
G01 X-28.0696 Y22.0982
G01 X-28.0405 Y22.0528
G01 X-28.0126 Y22.0134
G01 X-27.9849 Y21.9779
G01 X-27.9499 Y21.9368
G01 X-27.9078 Y21.8922
G01 X-27.8741 Y21.8600
G01 X-27.8221 Y21.8151
G01 X-27.7866 Y21.7874
G01 X-27.7472 Y21.7595
G01 X-27.7006 Y21.7296
G01 X-27.6550 Y21.7034
G01 X-27.6062 Y21.6785
G01 X-27.5577 Y21.6566
G01 X-27.4936 Y21.6319
G01 X-27.4422 Y21.6153
G01 X-27.3901 Y21.6013
G01 X-27.3449 Y21.5912
G01 X-27.2987 Y21.5831
G01 X-27.2434 Y21.5759
G01 X-27.1766 Y21.5711
G01 X-27.1300 Y21.5700
G01 X-27.0687 Y21.5718
G01 X-27.0149 Y21.5761
G01 X-26.9759 Y21.5809
G01 X-26.9226 Y21.5898
G01 X-26.8556 Y21.6048
G01 X-26.8037 Y21.6196
G01 X-26.7525 Y21.6369
G01 X-26.7023 Y21.6566
G01 X-26.6538 Y21.6785
G01 X-26.6180 Y21.6965
G01 X-26.5708 Y21.7228
G01 X-26.5250 Y21.7514
G01 X-26.4734 Y21.7874
G01 X-26.4265 Y21.8244
G01 X-26.3968 Y21.8501
G01 X-26.3756 Y21.8697
G01 X-24.3226 Y21.8698
G01 X-24.2834 Y21.8712
G01 X-24.2589 Y21.8730
G01 X-24.2053 Y21.8796
G01 X-24.1736 Y21.8852
G01 X-24.1427 Y21.8920
G01 X-24.0907 Y21.9064
G01 X-24.0535 Y21.9191
G01 X-24.0170 Y21.9336
G01 X-23.9820 Y21.9495
G01 X-23.9593 Y21.9609
G01 X-23.9250 Y21.9799
G01 X-23.8793 Y22.0088
G01 X-23.8474 Y22.0317
G01 X-23.8167 Y22.0561
G01 X-23.7872 Y22.0821
G01 X-23.7694 Y22.0990
G01 X-20.6685 Y25.1997
G01 X-19.7899 Y25.1997
G01 X-18.8003 Y24.2101
G01 X-18.8003 Y19.0000
G01 X-18.7988 Y18.9534
G01 X-18.7956 Y18.9142
G01 X-18.7904 Y18.8753
G01 X-18.7848 Y18.8436
G01 X-18.7780 Y18.8127
G01 X-18.7678 Y18.7748
G01 X-18.7559 Y18.7374
G01 X-18.7421 Y18.7006
G01 X-18.7265 Y18.6645
G01 X-18.7091 Y18.6293
G01 X-18.6901 Y18.5950
G01 X-18.6694 Y18.5616
G01 X-18.6418 Y18.5220
G01 X-18.6232 Y18.4981
G01 X-18.5978 Y18.4681
G01 X-18.5659 Y18.4341
G01 X-16.5209 Y16.3891
G01 X-16.4869 Y16.3572
G01 X-16.4669 Y16.3399
G01 X-16.4330 Y16.3132
G01 X-16.3934 Y16.2856
G01 X-16.3715 Y16.2717
G01 X-16.3387 Y16.2528
G01 X-16.3031 Y16.2345
G01 X-16.2579 Y16.2143
G01 X-16.2176 Y16.1991
G01 X-16.1802 Y16.1872
G01 X-16.1566 Y16.1806
G01 X-16.1114 Y16.1702
G01 X-16.0651 Y16.1624
G01 X-16.0390 Y16.1592
G01 X-16.0016 Y16.1562
G01 X-15.9550 Y16.1547
G01 X-6.0591 Y16.1547
G01 X-6.0241 Y16.1330
G01 X-5.9832 Y16.1103
G01 X-5.9538 Y16.0955
G01 X-5.9118 Y16.0765
G01 X-5.8544 Y16.0544
G01 X-5.8099 Y16.0400
G01 X-5.7789 Y16.0315
G01 X-5.7189 Y16.0180
G01 X-5.6727 Y16.0103
G01 X-5.6391 Y16.0062
G01 X-5.5795 Y16.0019
G01 X-5.5400 Y16.0010
G01 X-5.5005 Y16.0019
G01 X-5.4392 Y16.0064
G01 X-5.3927 Y16.0125
G01 X-5.3467 Y16.0209
G01 X-5.3011 Y16.0315
G01 X-5.2701 Y16.0400
G01 X-5.2256 Y16.0544
G01 X-5.1818 Y16.0709
G01 X-5.1262 Y16.0955
G01 X-5.0968 Y16.1103
G01 X-5.0559 Y16.1330
G01 X-5.0039 Y16.1659
G01 X-4.9704 Y16.1897
G01 X-4.9292 Y16.2223
G01 X-4.8939 Y16.2531
G01 X-4.8654 Y16.2804
G01 X-4.8381 Y16.3089
G01 X-4.8073 Y16.3442
G01 X-4.7694 Y16.3927
G01 X-4.7428 Y16.4312
G01 X-4.7248 Y16.4595
G01 X-4.6953 Y16.5118
G01 X-4.6745 Y16.5538
G01 X-4.6572 Y16.5933
G01 X-4.6443 Y16.6267
G01 X-4.6293 Y16.6710
G01 X-4.6129 Y16.7304
G01 X-4.6044 Y16.7686
G01 X-4.5953 Y16.8223
G01 X-4.5912 Y16.8559
G01 X-4.5876 Y16.9008
G01 X-4.5861 Y16.9476
G01 X-4.5869 Y16.9945
G01 X-4.5900 Y17.0412
G01 X-4.5953 Y17.0877
G01 X-4.6044 Y17.1414
G01 X-4.6165 Y17.1939
G01 X-4.6293 Y17.2390
G01 X-4.6443 Y17.2833
G01 X-4.6615 Y17.3268
G01 X-4.6805 Y17.3688
G01 X-4.7022 Y17.4112
G01 X-4.7256 Y17.4517
G01 X-4.7509 Y17.4911
G01 X-4.7694 Y17.5173
G01 X-4.8073 Y17.5658
G01 X-4.8381 Y17.6011
G01 X-4.8654 Y17.6296
G01 X-4.9048 Y17.6667
G01 X-4.9405 Y17.6971
G01 X-4.9777 Y17.7256
G01 X-5.0162 Y17.7522
G01 X-5.0445 Y17.7702
G01 X-5.0838 Y17.7928
G01 X-5.1262 Y17.8145
G01 X-5.1783 Y17.8378
G01 X-5.2256 Y17.8556
G01 X-5.2701 Y17.8700
G01 X-5.3154 Y17.8821
G01 X-5.3536 Y17.8906
G01 X-5.4073 Y17.8997
G01 X-5.4538 Y17.9050
G01 X-5.5005 Y17.9081
G01 X-5.5326 Y17.9089
G01 X-5.5942 Y17.9074
G01 X-5.6408 Y17.9036
G01 X-5.6873 Y17.8975
G01 X-5.7264 Y17.8906
G01 X-5.7646 Y17.8821
G01 X-5.8240 Y17.8657
G01 X-5.8683 Y17.8507
G01 X-5.9118 Y17.8335
G01 X-5.9538 Y17.8145
G01 X-5.9832 Y17.7997
G01 X-6.0241 Y17.7770
G01 X-6.0591 Y17.7553
G01 X-15.6235 Y17.7553
G01 X-17.1997 Y19.3315
G01 X-17.1997 Y24.5415
G01 X-17.2012 Y24.5881
G01 X-17.2044 Y24.6273
G01 X-17.2096 Y24.6662
G01 X-17.2152 Y24.6980
G01 X-17.2220 Y24.7288
G01 X-17.2322 Y24.7668
G01 X-17.2441 Y24.8042
G01 X-17.2593 Y24.8444
G01 X-17.2735 Y24.8770
G01 X-17.2909 Y24.9122
G01 X-17.3099 Y24.9466
G01 X-17.3306 Y24.9800
G01 X-17.3617 Y25.0241
G01 X-17.3861 Y25.0548
G01 X-17.4121 Y25.0843
G01 X-17.4341 Y25.1074
G01 X-18.8979 Y26.5710
G01 X-18.9266 Y26.5978
G01 X-18.9466 Y26.6151
G01 X-18.9805 Y26.6418
G01 X-19.0200 Y26.6694
G01 X-19.0420 Y26.6833
G01 X-19.0748 Y26.7022
G01 X-19.1230 Y26.7265
G01 X-19.1556 Y26.7407
G01 X-19.1820 Y26.7509
G01 X-19.2191 Y26.7636
G01 X-19.2712 Y26.7780
G01 X-19.3020 Y26.7848
G01 X-19.3338 Y26.7904
G01 X-19.3745 Y26.7958
G01 X-19.4119 Y26.7988
G01 X-19.4585 Y26.8003
G01 X-21.0000 Y26.8003
G01 X-21.0319 Y26.7996
G01 X-21.0711 Y26.7970
G01 X-21.1101 Y26.7926
G01 X-21.1564 Y26.7848
G01 X-21.1873 Y26.7780
G01 X-21.2252 Y26.7678
G01 X-21.2626 Y26.7559
G01 X-21.3029 Y26.7407
G01 X-21.3355 Y26.7265
G01 X-21.3837 Y26.7022
G01 X-21.4177 Y26.6825
G01 X-21.4507 Y26.6612
G01 X-21.4780 Y26.6418
G01 X-21.5133 Y26.6139
G01 X-21.5428 Y26.5879
G01 X-21.5659 Y26.5659
G01 X-24.6615 Y23.4703
G01 X-26.3756 Y23.4703
G01 X-26.3968 Y23.4899
G01 X-26.4279 Y23.5168
G01 X-26.4807 Y23.5578
G01 X-26.5250 Y23.5886
G01 X-26.5582 Y23.6096
G01 X-26.6050 Y23.6366
G01 X-26.6538 Y23.6615
G01 X-26.7124 Y23.6876
G01 X-26.7664 Y23.7081
G01 X-26.8178 Y23.7247
G01 X-26.8556 Y23.7352
G01 X-26.9151 Y23.7488
G01 X-26.9759 Y23.7591
G01 X-27.0166 Y23.7641
G01 X-27.0687 Y23.7682
G01 X-27.1300 Y23.7700
G01 X-27.1913 Y23.7682
G01 X-27.2451 Y23.7639
G01 X-27.2987 Y23.7569
G01 X-27.3449 Y23.7488
G01 X-27.3901 Y23.7387
G01 X-27.4563 Y23.7204
G01 X-27.5075 Y23.7031
G01 X-27.5577 Y23.6834
G01 X-27.6062 Y23.6615
G01 X-27.6550 Y23.6366
G01 X-27.7018 Y23.6096
G01 X-27.7350 Y23.5886
G01 X-27.7911 Y23.5491
G01 X-27.8335 Y23.5156
G01 X-27.8741 Y23.4800
G01 X-27.9078 Y23.4478
G01 X-27.9499 Y23.4032
G01 X-27.9768 Y23.3721
G01 X-28.0126 Y23.3266
G01 X-28.0405 Y23.2872
G01 X-28.0704 Y23.2406
G01 X-28.1035 Y23.1820
G01 X-28.1275 Y23.1336
G01 X-28.1476 Y23.0876
G01 X-28.1631 Y23.0475
G01 X-28.1804 Y22.9963
G01 X-28.1987 Y22.9301
G01 X-28.2088 Y22.8849
G01 X-28.2191 Y22.8241
G01 X-28.2253 Y22.7705
G01 X-28.2289 Y22.7166
G01 X-28.2300 Y22.6700
G01 X-28.2288 Y22.6234
G00 Z1.0000
G00 X-28.2288 Y25.1634
G01 F76.20
G01 Z-0.2000
G01 F200.00
G01 X-28.2239 Y25.0949
G01 X-28.2169 Y25.0413
G01 X-28.2088 Y24.9951
G01 X-28.1987 Y24.9499
G01 X-28.1847 Y24.8978
G01 X-28.1631 Y24.8325
G01 X-28.1434 Y24.7823
G01 X-28.1215 Y24.7338
G01 X-28.1035 Y24.6980
G01 X-28.0772 Y24.6508
G01 X-28.0486 Y24.6050
G01 X-28.0178 Y24.5607
G01 X-27.9756 Y24.5065
G01 X-27.9400 Y24.4659
G01 X-27.9078 Y24.4322
G01 X-27.8741 Y24.4000
G01 X-27.8321 Y24.3632
G01 X-27.7866 Y24.3274
G01 X-27.7472 Y24.2995
G01 X-27.6892 Y24.2628
G01 X-27.6420 Y24.2365
G01 X-27.6062 Y24.2185
G01 X-27.5577 Y24.1966
G01 X-27.5075 Y24.1769
G01 X-27.4422 Y24.1553
G01 X-27.3901 Y24.1413
G01 X-27.3449 Y24.1312
G01 X-27.2841 Y24.1209
G01 X-27.2305 Y24.1147
G01 X-27.1766 Y24.1111
G01 X-27.1300 Y24.1100
G01 X-27.0834 Y24.1111
G01 X-27.0295 Y24.1147
G01 X-26.9613 Y24.1231
G01 X-26.9151 Y24.1312
G01 X-26.8699 Y24.1413
G01 X-26.8178 Y24.1553
G01 X-26.7525 Y24.1769
G01 X-26.7023 Y24.1966
G01 X-26.6538 Y24.2185
G01 X-26.6180 Y24.2365
G01 X-26.5708 Y24.2628
G01 X-26.5250 Y24.2914
G01 X-26.4734 Y24.3274
G01 X-26.4265 Y24.3644
G01 X-26.3968 Y24.3901
G01 X-26.3756 Y24.4097
G01 X-25.5140 Y24.4097
G01 X-25.4821 Y24.4104
G01 X-25.4429 Y24.4130
G01 X-25.4039 Y24.4174
G01 X-25.3576 Y24.4252
G01 X-25.3124 Y24.4356
G01 X-25.2747 Y24.4464
G01 X-25.2375 Y24.4591
G01 X-25.2010 Y24.4736
G01 X-25.1659 Y24.4895
G01 X-25.1303 Y24.5078
G01 X-25.0963 Y24.5275
G01 X-25.0756 Y24.5406
G01 X-25.0360 Y24.5682
G01 X-25.0121 Y24.5868
G01 X-24.9821 Y24.6122
G01 X-24.9481 Y24.6441
G01 X-19.5740 Y30.0184
G01 X-19.5472 Y30.0471
G01 X-19.5299 Y30.0671
G01 X-19.5032 Y30.1010
G01 X-19.4838 Y30.1283
G01 X-19.4617 Y30.1625
G01 X-19.4428 Y30.1953
G01 X-19.4185 Y30.2435
G01 X-19.4043 Y30.2761
G01 X-19.3941 Y30.3025
G01 X-19.3814 Y30.3397
G01 X-19.3706 Y30.3774
G01 X-19.3588 Y30.4301
G01 X-19.3524 Y30.4689
G01 X-19.3480 Y30.5079
G01 X-19.3454 Y30.5471
G01 X-19.3447 Y30.5790
G01 X-19.3447 Y32.7106
G01 X-19.3251 Y32.7318
G01 X-19.2901 Y32.7729
G01 X-19.2624 Y32.8084
G01 X-19.2264 Y32.8600
G01 X-19.2046 Y32.8944
G01 X-19.1784 Y32.9400
G01 X-19.1535 Y32.9888
G01 X-19.1316 Y33.0373
G01 X-19.1119 Y33.0875
G01 X-19.0946 Y33.1387
G01 X-19.0763 Y33.2049
G01 X-19.0662 Y33.2501
G01 X-19.0559 Y33.3109
G01 X-19.0497 Y33.3645
G01 X-19.0461 Y33.4184
G01 X-19.0450 Y33.4650
G01 X-19.0468 Y33.5263
G01 X-19.0511 Y33.5801
G01 X-19.0559 Y33.6191
G01 X-19.0648 Y33.6724
G01 X-19.0763 Y33.7251
G01 X-19.0903 Y33.7772
G01 X-19.1069 Y33.8286
G01 X-19.1274 Y33.8826
G01 X-19.1535 Y33.9412
G01 X-19.1784 Y33.9900
G01 X-19.2054 Y34.0368
G01 X-19.2345 Y34.0822
G01 X-19.2624 Y34.1216
G01 X-19.2994 Y34.1685
G01 X-19.3350 Y34.2091
G01 X-19.3725 Y34.2480
G01 X-19.4118 Y34.2849
G01 X-19.4429 Y34.3118
G01 X-19.4839 Y34.3441
G01 X-19.5278 Y34.3755
G01 X-19.5858 Y34.4122
G01 X-19.6330 Y34.4385
G01 X-19.6688 Y34.4565
G01 X-19.7173 Y34.4784
G01 X-19.7814 Y34.5031
G01 X-19.8328 Y34.5197
G01 X-19.8849 Y34.5337
G01 X-19.9301 Y34.5438
G01 X-19.9763 Y34.5519
G01 X-20.0316 Y34.5591
G01 X-20.0984 Y34.5639
G01 X-20.1450 Y34.5650
G01 X-20.2063 Y34.5632
G01 X-20.2601 Y34.5589
G01 X-20.2991 Y34.5541
G01 X-20.3524 Y34.5452
G01 X-20.4051 Y34.5337
G01 X-20.4572 Y34.5197
G01 X-20.5225 Y34.4981
G01 X-20.5727 Y34.4784
G01 X-20.6212 Y34.4565
G01 X-20.6570 Y34.4385
G01 X-20.7042 Y34.4122
G01 X-20.7622 Y34.3755
G01 X-20.8061 Y34.3441
G01 X-20.8485 Y34.3106
G01 X-20.8782 Y34.2849
G01 X-20.9175 Y34.2480
G01 X-20.9649 Y34.1982
G01 X-20.9999 Y34.1571
G01 X-21.0276 Y34.1216
G01 X-21.0555 Y34.0822
G01 X-21.0854 Y34.0356
G01 X-21.1185 Y33.9770
G01 X-21.1425 Y33.9286
G01 X-21.1640 Y33.8791
G01 X-21.1831 Y33.8286
G01 X-21.1954 Y33.7913
G01 X-21.2102 Y33.7394
G01 X-21.2238 Y33.6799
G01 X-21.2341 Y33.6191
G01 X-21.2391 Y33.5784
G01 X-21.2432 Y33.5263
G01 X-21.2450 Y33.4650
G01 X-21.2432 Y33.4037
G01 X-21.2389 Y33.3499
G01 X-21.2319 Y33.2963
G01 X-21.2238 Y33.2501
G01 X-21.2137 Y33.2049
G01 X-21.1954 Y33.1387
G01 X-21.1781 Y33.0875
G01 X-21.1584 Y33.0373
G01 X-21.1365 Y32.9888
G01 X-21.1116 Y32.9400
G01 X-21.0846 Y32.8932
G01 X-21.0636 Y32.8600
G01 X-21.0276 Y32.8084
G01 X-20.9999 Y32.7729
G01 X-20.9649 Y32.7318
G01 X-20.9453 Y32.7106
G01 X-20.9453 Y30.9105
G01 X-25.8455 Y26.0103
G01 X-26.3756 Y26.0103
G01 X-26.3968 Y26.0299
G01 X-26.4379 Y26.0649
G01 X-26.4734 Y26.0926
G01 X-26.5128 Y26.1205
G01 X-26.5708 Y26.1572
G01 X-26.6180 Y26.1835
G01 X-26.6538 Y26.2015
G01 X-26.7023 Y26.2234
G01 X-26.7525 Y26.2431
G01 X-26.8178 Y26.2647
G01 X-26.8699 Y26.2787
G01 X-26.9082 Y26.2873
G01 X-26.9759 Y26.2991
G01 X-27.0295 Y26.3053
G01 X-27.0834 Y26.3089
G01 X-27.1300 Y26.3100
G01 X-27.1766 Y26.3089
G01 X-27.2305 Y26.3053
G01 X-27.2987 Y26.2969
G01 X-27.3518 Y26.2873
G01 X-27.4044 Y26.2752
G01 X-27.4563 Y26.2604
G01 X-27.4936 Y26.2481
G01 X-27.5577 Y26.2234
G01 X-27.6062 Y26.2015
G01 X-27.6550 Y26.1766
G01 X-27.7018 Y26.1496
G01 X-27.7350 Y26.1286
G01 X-27.7911 Y26.0891
G01 X-27.8335 Y26.0556
G01 X-27.8632 Y26.0299
G01 X-27.9078 Y25.9878
G01 X-27.9400 Y25.9541
G01 X-27.9849 Y25.9021
G01 X-28.0126 Y25.8666
G01 X-28.0405 Y25.8272
G01 X-28.0772 Y25.7692
G01 X-28.1035 Y25.7220
G01 X-28.1215 Y25.6862
G01 X-28.1434 Y25.6377
G01 X-28.1631 Y25.5875
G01 X-28.1847 Y25.5222
G01 X-28.1987 Y25.4701
G01 X-28.2088 Y25.4249
G01 X-28.2169 Y25.3787
G01 X-28.2239 Y25.3251
G01 X-28.2289 Y25.2566
G01 X-28.2300 Y25.2100
G01 X-28.2288 Y25.1634
G00 Z1.0000
G00 X-28.2288 Y30.2434
G01 F76.20
G01 Z-0.2000
G01 F200.00
G01 X-28.2253 Y30.1895
G01 X-28.2191 Y30.1359
G01 X-28.2088 Y30.0751
G01 X-28.1987 Y30.0299
G01 X-28.1847 Y29.9778
G01 X-28.1681 Y29.9264
G01 X-28.1476 Y29.8724
G01 X-28.1275 Y29.8264
G01 X-28.1035 Y29.7780
G01 X-28.0772 Y29.7308
G01 X-28.0486 Y29.6850
G01 X-28.0126 Y29.6334
G01 X-27.9849 Y29.5979
G01 X-27.9499 Y29.5568
G01 X-27.9078 Y29.5122
G01 X-27.8741 Y29.4800
G01 X-27.8321 Y29.4432
G01 X-27.7866 Y29.4074
G01 X-27.7472 Y29.3795
G01 X-27.7006 Y29.3496
G01 X-27.6550 Y29.3234
G01 X-27.6062 Y29.2985
G01 X-27.5577 Y29.2766
G01 X-27.5075 Y29.2569
G01 X-27.4563 Y29.2396
G01 X-27.4044 Y29.2248
G01 X-27.3449 Y29.2112
G01 X-27.2987 Y29.2031
G01 X-27.2434 Y29.1959
G01 X-27.1913 Y29.1918
G01 X-27.1300 Y29.1900
G01 X-27.0834 Y29.1911
G01 X-27.0295 Y29.1947
G01 X-26.9759 Y29.2009
G01 X-26.9151 Y29.2112
G01 X-26.8699 Y29.2213
G01 X-26.8178 Y29.2353
G01 X-26.7664 Y29.2519
G01 X-26.7124 Y29.2724
G01 X-26.6664 Y29.2925
G01 X-26.6180 Y29.3165
G01 X-26.5708 Y29.3428
G01 X-26.5250 Y29.3714
G01 X-26.4734 Y29.4074
G01 X-26.4379 Y29.4351
G01 X-26.3968 Y29.4701
G01 X-26.3522 Y29.5122
G01 X-26.3200 Y29.5459
G01 X-26.2832 Y29.5879
G01 X-26.2474 Y29.6334
G01 X-26.2195 Y29.6728
G01 X-26.1896 Y29.7194
G01 X-26.1634 Y29.7650
G01 X-26.1385 Y29.8138
G01 X-26.1166 Y29.8623
G01 X-26.0969 Y29.9125
G01 X-26.0796 Y29.9637
G01 X-26.0648 Y30.0156
G01 X-26.0512 Y30.0751
G01 X-26.0431 Y30.1213
G01 X-26.0359 Y30.1766
G01 X-26.0318 Y30.2287
G01 X-26.0300 Y30.2900
G01 X-26.0311 Y30.3366
G01 X-26.0347 Y30.3905
G01 X-26.0409 Y30.4441
G01 X-26.0512 Y30.5049
G01 X-26.0613 Y30.5501
G01 X-26.0753 Y30.6022
G01 X-26.0919 Y30.6536
G01 X-26.1124 Y30.7076
G01 X-26.1325 Y30.7536
G01 X-26.1565 Y30.8020
G01 X-26.1828 Y30.8492
G01 X-26.2114 Y30.8950
G01 X-26.2474 Y30.9466
G01 X-26.2751 Y30.9821
G01 X-26.3101 Y31.0232
G01 X-26.3522 Y31.0678
G01 X-26.3859 Y31.1000
G01 X-26.4279 Y31.1368
G01 X-26.4734 Y31.1726
G01 X-26.5128 Y31.2005
G01 X-26.5594 Y31.2304
G01 X-26.6050 Y31.2566
G01 X-26.6538 Y31.2815
G01 X-26.7023 Y31.3034
G01 X-26.7525 Y31.3231
G01 X-26.8037 Y31.3404
G01 X-26.8556 Y31.3552
G01 X-26.9151 Y31.3688
G01 X-26.9613 Y31.3769
G01 X-27.0166 Y31.3841
G01 X-27.0687 Y31.3882
G01 X-27.1300 Y31.3900
G01 X-27.1766 Y31.3889
G01 X-27.2305 Y31.3853
G01 X-27.2841 Y31.3791
G01 X-27.3449 Y31.3688
G01 X-27.3901 Y31.3587
G01 X-27.4422 Y31.3447
G01 X-27.4936 Y31.3281
G01 X-27.5476 Y31.3076
G01 X-27.5936 Y31.2875
G01 X-27.6420 Y31.2635
G01 X-27.6892 Y31.2372
G01 X-27.7350 Y31.2086
G01 X-27.7866 Y31.1726
G01 X-27.8221 Y31.1449
G01 X-27.8632 Y31.1099
G01 X-27.9078 Y31.0678
G01 X-27.9400 Y31.0341
G01 X-27.9768 Y30.9921
G01 X-28.0126 Y30.9466
G01 X-28.0405 Y30.9072
G01 X-28.0704 Y30.8606
G01 X-28.0966 Y30.8150
G01 X-28.1215 Y30.7662
G01 X-28.1434 Y30.7177
G01 X-28.1631 Y30.6675
G01 X-28.1804 Y30.6163
G01 X-28.1952 Y30.5644
G01 X-28.2088 Y30.5049
G01 X-28.2169 Y30.4587
G01 X-28.2241 Y30.4034
G01 X-28.2282 Y30.3513
G01 X-28.2300 Y30.2900
G01 X-28.2288 Y30.2434
G00 Z1.0000
G00 X-28.2288 Y35.3234
G01 F76.20
G01 Z-0.2000
G01 F200.00
G01 X-28.2253 Y35.2695
G01 X-28.2191 Y35.2159
G01 X-28.2088 Y35.1551
G01 X-28.1987 Y35.1099
G01 X-28.1847 Y35.0578
G01 X-28.1681 Y35.0064
G01 X-28.1476 Y34.9524
G01 X-28.1275 Y34.9064
G01 X-28.1035 Y34.8580
G01 X-28.0772 Y34.8108
G01 X-28.0486 Y34.7650
G01 X-28.0126 Y34.7134
G01 X-27.9849 Y34.6779
G01 X-27.9499 Y34.6368
G01 X-27.9078 Y34.5922
G01 X-27.8741 Y34.5600
G01 X-27.8321 Y34.5232
G01 X-27.7866 Y34.4874
G01 X-27.7472 Y34.4595
G01 X-27.7006 Y34.4296
G01 X-27.6550 Y34.4034
G01 X-27.6062 Y34.3785
G01 X-27.5577 Y34.3566
G01 X-27.5075 Y34.3369
G01 X-27.4563 Y34.3196
G01 X-27.4044 Y34.3048
G01 X-27.3449 Y34.2912
G01 X-27.2987 Y34.2831
G01 X-27.2434 Y34.2759
G01 X-27.1913 Y34.2718
G01 X-27.1300 Y34.2700
G01 X-27.0834 Y34.2711
G01 X-27.0295 Y34.2747
G01 X-26.9759 Y34.2809
G01 X-26.9151 Y34.2912
G01 X-26.8699 Y34.3013
G01 X-26.8178 Y34.3153
G01 X-26.7664 Y34.3319
G01 X-26.7124 Y34.3524
G01 X-26.6664 Y34.3725
G01 X-26.6180 Y34.3965
G01 X-26.5708 Y34.4228
G01 X-26.5250 Y34.4514
G01 X-26.4734 Y34.4874
G01 X-26.4379 Y34.5151
G01 X-26.3968 Y34.5501
G01 X-26.3522 Y34.5922
G01 X-26.3200 Y34.6259
G01 X-26.2832 Y34.6679
G01 X-26.2474 Y34.7134
G01 X-26.2195 Y34.7528
G01 X-26.1896 Y34.7994
G01 X-26.1634 Y34.8450
G01 X-26.1385 Y34.8938
G01 X-26.1166 Y34.9423
G01 X-26.0969 Y34.9925
G01 X-26.0796 Y35.0437
G01 X-26.0648 Y35.0956
G01 X-26.0512 Y35.1551
G01 X-26.0431 Y35.2013
G01 X-26.0359 Y35.2566
G01 X-26.0318 Y35.3087
G01 X-26.0300 Y35.3700
G01 X-26.0311 Y35.4166
G01 X-26.0347 Y35.4705
G01 X-26.0409 Y35.5241
G01 X-26.0512 Y35.5849
G01 X-26.0613 Y35.6301
G01 X-26.0753 Y35.6822
G01 X-26.0919 Y35.7336
G01 X-26.1124 Y35.7876
G01 X-26.1325 Y35.8336
G01 X-26.1565 Y35.8820
G01 X-26.1828 Y35.9292
G01 X-26.2114 Y35.9750
G01 X-26.2474 Y36.0266
G01 X-26.2751 Y36.0621
G01 X-26.3101 Y36.1032
G01 X-26.3522 Y36.1478
G01 X-26.3859 Y36.1800
G01 X-26.4279 Y36.2168
G01 X-26.4734 Y36.2526
G01 X-26.5128 Y36.2805
G01 X-26.5594 Y36.3104
G01 X-26.6050 Y36.3366
G01 X-26.6538 Y36.3615
G01 X-26.7023 Y36.3834
G01 X-26.7525 Y36.4031
G01 X-26.8037 Y36.4204
G01 X-26.8556 Y36.4352
G01 X-26.9151 Y36.4488
G01 X-26.9613 Y36.4569
G01 X-27.0166 Y36.4641
G01 X-27.0687 Y36.4682
G01 X-27.1300 Y36.4700
G01 X-27.1766 Y36.4689
G01 X-27.2305 Y36.4653
G01 X-27.2841 Y36.4591
G01 X-27.3449 Y36.4488
G01 X-27.3901 Y36.4387
G01 X-27.4422 Y36.4247
G01 X-27.4936 Y36.4081
G01 X-27.5476 Y36.3876
G01 X-27.5936 Y36.3675
G01 X-27.6420 Y36.3435
G01 X-27.6892 Y36.3172
G01 X-27.7350 Y36.2886
G01 X-27.7866 Y36.2526
G01 X-27.8221 Y36.2249
G01 X-27.8632 Y36.1899
G01 X-27.9078 Y36.1478
G01 X-27.9400 Y36.1141
G01 X-27.9768 Y36.0721
G01 X-28.0126 Y36.0266
G01 X-28.0405 Y35.9872
G01 X-28.0704 Y35.9406
G01 X-28.0966 Y35.8950
G01 X-28.1215 Y35.8462
G01 X-28.1434 Y35.7977
G01 X-28.1631 Y35.7475
G01 X-28.1804 Y35.6963
G01 X-28.1952 Y35.6444
G01 X-28.2088 Y35.5849
G01 X-28.2169 Y35.5387
G01 X-28.2241 Y35.4834
G01 X-28.2282 Y35.4313
G01 X-28.2300 Y35.3700
G01 X-28.2288 Y35.3234
G00 Z1.0000
G00 X-28.2288 Y37.8634
G01 F76.20
G01 Z-0.2000
G01 F200.00
G01 X-28.2253 Y37.8095
G01 X-28.2191 Y37.7559
G01 X-28.2088 Y37.6951
G01 X-28.1987 Y37.6499
G01 X-28.1847 Y37.5978
G01 X-28.1681 Y37.5464
G01 X-28.1476 Y37.4924
G01 X-28.1275 Y37.4464
G01 X-28.1035 Y37.3980
G01 X-28.0772 Y37.3508
G01 X-28.0486 Y37.3050
G01 X-28.0126 Y37.2534
G01 X-27.9849 Y37.2179
G01 X-27.9499 Y37.1768
G01 X-27.9078 Y37.1322
G01 X-27.8741 Y37.1000
G01 X-27.8321 Y37.0632
G01 X-27.7866 Y37.0274
G01 X-27.7472 Y36.9995
G01 X-27.7006 Y36.9696
G01 X-27.6550 Y36.9434
G01 X-27.6062 Y36.9185
G01 X-27.5577 Y36.8966
G01 X-27.5075 Y36.8769
G01 X-27.4563 Y36.8596
G01 X-27.4044 Y36.8448
G01 X-27.3449 Y36.8312
G01 X-27.2987 Y36.8231
G01 X-27.2434 Y36.8159
G01 X-27.1913 Y36.8118
G01 X-27.1300 Y36.8100
G01 X-27.0834 Y36.8111
G01 X-27.0295 Y36.8147
G01 X-26.9759 Y36.8209
G01 X-26.9151 Y36.8312
G01 X-26.8699 Y36.8413
G01 X-26.8178 Y36.8553
G01 X-26.7664 Y36.8719
G01 X-26.7124 Y36.8924
G01 X-26.6664 Y36.9125
G01 X-26.6180 Y36.9365
G01 X-26.5708 Y36.9628
G01 X-26.5250 Y36.9914
G01 X-26.4734 Y37.0274
G01 X-26.4379 Y37.0551
G01 X-26.3968 Y37.0901
G01 X-26.3522 Y37.1322
G01 X-26.3200 Y37.1659
G01 X-26.2832 Y37.2079
G01 X-26.2474 Y37.2534
G01 X-26.2195 Y37.2928
G01 X-26.1896 Y37.3394
G01 X-26.1634 Y37.3850
G01 X-26.1385 Y37.4338
G01 X-26.1166 Y37.4823
G01 X-26.0969 Y37.5325
G01 X-26.0796 Y37.5837
G01 X-26.0648 Y37.6356
G01 X-26.0512 Y37.6951
G01 X-26.0431 Y37.7413
G01 X-26.0359 Y37.7966
G01 X-26.0318 Y37.8487
G01 X-26.0300 Y37.9100
G01 X-26.0311 Y37.9566
G01 X-26.0347 Y38.0105
G01 X-26.0409 Y38.0641
G01 X-26.0512 Y38.1249
G01 X-26.0613 Y38.1701
G01 X-26.0753 Y38.2222
G01 X-26.0919 Y38.2736
G01 X-26.1124 Y38.3276
G01 X-26.1325 Y38.3736
G01 X-26.1565 Y38.4220
G01 X-26.1828 Y38.4692
G01 X-26.2114 Y38.5150
G01 X-26.2474 Y38.5666
G01 X-26.2751 Y38.6021
G01 X-26.3101 Y38.6432
G01 X-26.3522 Y38.6878
G01 X-26.3859 Y38.7200
G01 X-26.4279 Y38.7568
G01 X-26.4734 Y38.7926
G01 X-26.5128 Y38.8205
G01 X-26.5594 Y38.8504
G01 X-26.6050 Y38.8766
G01 X-26.6538 Y38.9015
G01 X-26.7023 Y38.9234
G01 X-26.7525 Y38.9431
G01 X-26.8037 Y38.9604
G01 X-26.8556 Y38.9752
G01 X-26.9151 Y38.9888
G01 X-26.9613 Y38.9969
G01 X-27.0166 Y39.0041
G01 X-27.0687 Y39.0082
G01 X-27.1300 Y39.0100
G01 X-27.1766 Y39.0089
G01 X-27.2305 Y39.0053
G01 X-27.2841 Y38.9991
G01 X-27.3449 Y38.9888
G01 X-27.3901 Y38.9787
G01 X-27.4422 Y38.9647
G01 X-27.4936 Y38.9481
G01 X-27.5476 Y38.9276
G01 X-27.5936 Y38.9075
G01 X-27.6420 Y38.8835
G01 X-27.6892 Y38.8572
G01 X-27.7350 Y38.8286
G01 X-27.7866 Y38.7926
G01 X-27.8221 Y38.7649
G01 X-27.8632 Y38.7299
G01 X-27.9078 Y38.6878
G01 X-27.9400 Y38.6541
G01 X-27.9768 Y38.6121
G01 X-28.0126 Y38.5666
G01 X-28.0405 Y38.5272
G01 X-28.0704 Y38.4806
G01 X-28.0966 Y38.4350
G01 X-28.1215 Y38.3862
G01 X-28.1434 Y38.3377
G01 X-28.1631 Y38.2875
G01 X-28.1804 Y38.2363
G01 X-28.1952 Y38.1844
G01 X-28.2088 Y38.1249
G01 X-28.2169 Y38.0787
G01 X-28.2241 Y38.0234
G01 X-28.2282 Y37.9713
G01 X-28.2300 Y37.9100
G01 X-28.2288 Y37.8634
G00 Z1.0000
G00 X-26.3300 Y39.3500
G01 F76.20
G01 Z-0.2000
G01 F200.00
G01 X-26.3022 Y39.3513
G01 X-26.2746 Y39.3552
G01 X-26.2474 Y39.3616
G01 X-26.2210 Y39.3705
G01 X-26.1949 Y39.3821
G01 X-26.1694 Y39.3966
G01 X-26.1454 Y39.4136
G01 X-26.1231 Y39.4327
G01 X-26.1029 Y39.4540
G01 X-26.0848 Y39.4771
G01 X-26.0691 Y39.5019
G01 X-26.0621 Y39.5149
G01 X-26.0505 Y39.5410
G01 X-26.0416 Y39.5674
G01 X-26.0352 Y39.5946
G01 X-26.0313 Y39.6222
G01 X-26.0300 Y39.6500
G01 X-26.0303 Y41.2639
G01 X-26.0313 Y41.2778
G01 X-26.0352 Y41.3054
G01 X-26.0416 Y41.3326
G01 X-26.0505 Y41.3590
G01 X-26.0621 Y41.3851
G01 X-26.0766 Y41.4106
G01 X-26.0848 Y41.4229
G01 X-26.1029 Y41.4460
G01 X-26.1231 Y41.4673
G01 X-26.1454 Y41.4864
G01 X-26.1694 Y41.5034
G01 X-26.1819 Y41.5109
G01 X-26.2082 Y41.5241
G01 X-26.2341 Y41.5343
G01 X-26.2609 Y41.5419
G01 X-26.2883 Y41.5471
G01 X-26.3022 Y41.5487
G01 X-26.3300 Y41.5500
G01 X-27.9439 Y41.5497
G01 X-27.9717 Y41.5471
G01 X-27.9991 Y41.5419
G01 X-28.0259 Y41.5343
G01 X-28.0390 Y41.5295
G01 X-28.0651 Y41.5179
G01 X-28.0907 Y41.5034
G01 X-28.1029 Y41.4952
G01 X-28.1260 Y41.4771
G01 X-28.1473 Y41.4569
G01 X-28.1664 Y41.4346
G01 X-28.1834 Y41.4106
G01 X-28.1909 Y41.3981
G01 X-28.2041 Y41.3718
G01 X-28.2143 Y41.3459
G01 X-28.2219 Y41.3191
G01 X-28.2271 Y41.2917
G01 X-28.2297 Y41.2639
G01 X-28.2300 Y41.2500
G01 X-28.2297 Y39.6361
G01 X-28.2271 Y39.6083
G01 X-28.2248 Y39.5946
G01 X-28.2184 Y39.5674
G01 X-28.2095 Y39.5410
G01 X-28.1979 Y39.5149
G01 X-28.1834 Y39.4894
G01 X-28.1664 Y39.4654
G01 X-28.1571 Y39.4540
G01 X-28.1369 Y39.4327
G01 X-28.1146 Y39.4136
G01 X-28.0907 Y39.3966
G01 X-28.0651 Y39.3821
G01 X-28.0390 Y39.3705
G01 X-28.0126 Y39.3616
G01 X-27.9991 Y39.3581
G01 X-27.9717 Y39.3529
G01 X-27.9439 Y39.3503
G01 X-26.3300 Y39.3500
G00 Z1.0000
G00 X-19.1033 Y27.6838
G01 F76.20
G01 Z-0.2000
G01 F200.00
G01 X-19.0984 Y27.6103
G01 X-19.0898 Y27.5372
G01 X-19.0761 Y27.4571
G01 X-19.0617 Y27.3927
G01 X-19.0425 Y27.3216
G01 X-19.0197 Y27.2516
G01 X-18.9922 Y27.1794
G01 X-18.9581 Y27.1028
G01 X-18.9243 Y27.0365
G01 X-18.8877 Y26.9726
G01 X-18.8480 Y26.9106
G01 X-18.8088 Y26.8552
G01 X-18.7691 Y26.8042
G01 X-18.7213 Y26.7482
G01 X-18.6657 Y26.6893
G01 X-18.6177 Y26.6436
G01 X-18.5608 Y26.5940
G01 X-18.4998 Y26.5462
G01 X-18.4322 Y26.4988
G01 X-18.3698 Y26.4597
G01 X-18.3056 Y26.4237
G01 X-18.2396 Y26.3909
G01 X-18.1756 Y26.3628
G01 X-18.1034 Y26.3353
G01 X-18.0334 Y26.3125
G01 X-17.9623 Y26.2933
G01 X-17.8979 Y26.2789
G01 X-17.8178 Y26.2652
G01 X-17.7447 Y26.2566
G01 X-17.6712 Y26.2515
G01 X-17.5976 Y26.2501
G01 X-17.5240 Y26.2523
G01 X-17.4653 Y26.2566
G01 X-17.4053 Y26.2636
G01 X-17.4053 Y25.4800
G01 X-17.4046 Y25.4481
G01 X-17.4020 Y25.4089
G01 X-17.3954 Y25.3553
G01 X-17.3898 Y25.3236
G01 X-17.3830 Y25.2927
G01 X-17.3686 Y25.2407
G01 X-17.3559 Y25.2035
G01 X-17.3457 Y25.1771
G01 X-17.3255 Y25.1320
G01 X-17.3141 Y25.1093
G01 X-17.2951 Y25.0750
G01 X-17.2662 Y25.0293
G01 X-17.2468 Y25.0020
G01 X-17.2282 Y24.9781
G01 X-17.1929 Y24.9372
G01 X-17.1709 Y24.9141
G01 X-11.1859 Y18.9291
G01 X-11.1519 Y18.8972
G01 X-11.1219 Y18.8718
G01 X-11.0980 Y18.8532
G01 X-11.0707 Y18.8338
G01 X-11.0365 Y18.8117
G01 X-10.9907 Y18.7859
G01 X-10.9681 Y18.7745
G01 X-10.9330 Y18.7586
G01 X-10.8965 Y18.7441
G01 X-10.8452 Y18.7272
G01 X-10.8073 Y18.7170
G01 X-10.7833 Y18.7117
G01 X-10.7447 Y18.7046
G01 X-10.7040 Y18.6992
G01 X-10.6519 Y18.6954
G01 X-10.6200 Y18.6947
G01 X-6.4559 Y18.6947
G01 X-6.4392 Y18.6681
G01 X-6.4211 Y18.6450
G01 X-6.4113 Y18.6341
G01 X-6.3900 Y18.6139
G01 X-6.3786 Y18.6046
G01 X-6.3669 Y18.5958
G01 X-6.3421 Y18.5801
G01 X-6.3158 Y18.5669
G01 X-6.3030 Y18.5615
G01 X-6.2766 Y18.5526
G01 X-6.2494 Y18.5462
G01 X-6.2357 Y18.5439
G01 X-6.2218 Y18.5423
G01 X-6.1940 Y18.5410
G01 X-4.8860 Y18.5410
G01 X-4.8582 Y18.5423
G01 X-4.8306 Y18.5462
G01 X-4.8034 Y18.5526
G01 X-4.7901 Y18.5567
G01 X-4.7642 Y18.5669
G01 X-4.7509 Y18.5731
G01 X-4.7254 Y18.5876
G01 X-4.7131 Y18.5958
G01 X-4.6900 Y18.6139
G01 X-4.6687 Y18.6341
G01 X-4.6496 Y18.6564
G01 X-4.6326 Y18.6804
G01 X-4.6181 Y18.7059
G01 X-4.6119 Y18.7192
G01 X-4.6017 Y18.7451
G01 X-4.5941 Y18.7719
G01 X-4.5912 Y18.7856
G01 X-4.5873 Y18.8132
G01 X-4.5863 Y18.8271
G01 X-4.5860 Y20.1490
G01 X-4.5873 Y20.1768
G01 X-4.5912 Y20.2044
G01 X-4.5976 Y20.2316
G01 X-4.6017 Y20.2449
G01 X-4.6119 Y20.2708
G01 X-4.6181 Y20.2841
G01 X-4.6326 Y20.3097
G01 X-4.6408 Y20.3219
G01 X-4.6589 Y20.3450
G01 X-4.6791 Y20.3663
G01 X-4.6900 Y20.3761
G01 X-4.7014 Y20.3854
G01 X-4.7254 Y20.4024
G01 X-4.7509 Y20.4169
G01 X-4.7642 Y20.4231
G01 X-4.7770 Y20.4285
G01 X-4.8034 Y20.4374
G01 X-4.8169 Y20.4409
G01 X-4.8443 Y20.4461
G01 X-4.8721 Y20.4487
G01 X-4.8860 Y20.4490
G01 X-6.1940 Y20.4490
G01 X-6.2218 Y20.4477
G01 X-6.2494 Y20.4438
G01 X-6.2631 Y20.4409
G01 X-6.2899 Y20.4333
G01 X-6.3158 Y20.4231
G01 X-6.3291 Y20.4169
G01 X-6.3547 Y20.4024
G01 X-6.3669 Y20.3942
G01 X-6.3900 Y20.3761
G01 X-6.4113 Y20.3559
G01 X-6.4304 Y20.3336
G01 X-6.4392 Y20.3219
G01 X-6.4559 Y20.2953
G01 X-10.2885 Y20.2953
G01 X-15.8048 Y25.8115
G01 X-15.8048 Y26.7500
G01 X-15.8054 Y26.7819
G01 X-15.8080 Y26.8211
G01 X-15.8146 Y26.8747
G01 X-15.8202 Y26.9064
G01 X-15.8306 Y26.9516
G01 X-15.8414 Y26.9893
G01 X-15.8541 Y27.0265
G01 X-15.8686 Y27.0630
G01 X-15.8845 Y27.0981
G01 X-15.9028 Y27.1337
G01 X-15.9225 Y27.1677
G01 X-15.9438 Y27.2007
G01 X-15.9632 Y27.2280
G01 X-15.9818 Y27.2519
G01 X-16.0072 Y27.2819
G01 X-16.0391 Y27.3159
G01 X-16.1423 Y27.4191
G01 X-16.1339 Y27.4571
G01 X-16.1224 Y27.5226
G01 X-16.1116 Y27.6103
G01 X-16.1065 Y27.6838
G01 X-16.1051 Y27.7426
G01 X-16.1065 Y27.8162
G01 X-16.1130 Y27.9043
G01 X-16.1224 Y27.9774
G01 X-16.1339 Y28.0429
G01 X-16.1483 Y28.1073
G01 X-16.1718 Y28.1924
G01 X-16.1952 Y28.2622
G01 X-16.2178 Y28.3206
G01 X-16.2519 Y28.3972
G01 X-16.2857 Y28.4635
G01 X-16.3223 Y28.5274
G01 X-16.3620 Y28.5894
G01 X-16.4012 Y28.6448
G01 X-16.4409 Y28.6958
G01 X-16.4887 Y28.7518
G01 X-16.5392 Y28.8054
G01 X-16.6032 Y28.8663
G01 X-16.6492 Y28.9060
G01 X-16.7102 Y28.9538
G01 X-16.7656 Y28.9930
G01 X-16.8288 Y29.0335
G01 X-16.9044 Y29.0763
G01 X-16.9578 Y29.1031
G01 X-17.0242 Y29.1329
G01 X-17.1066 Y29.1647
G01 X-17.1766 Y29.1875
G01 X-17.2477 Y29.2067
G01 X-17.3052 Y29.2197
G01 X-17.3922 Y29.2348
G01 X-17.4524 Y29.2422
G01 X-17.5240 Y29.2477
G01 X-17.6050 Y29.2500
G01 X-17.6860 Y29.2477
G01 X-17.7593 Y29.2420
G01 X-17.8178 Y29.2348
G01 X-17.8979 Y29.2211
G01 X-17.9766 Y29.2032
G01 X-18.0474 Y29.1832
G01 X-18.1034 Y29.1647
G01 X-18.1756 Y29.1372
G01 X-18.2522 Y29.1031
G01 X-18.3056 Y29.0763
G01 X-18.3698 Y29.0403
G01 X-18.4444 Y28.9930
G01 X-18.5044 Y28.9504
G01 X-18.5622 Y28.9048
G01 X-18.6068 Y28.8663
G01 X-18.6708 Y28.8054
G01 X-18.7213 Y28.7518
G01 X-18.7598 Y28.7072
G01 X-18.8088 Y28.6448
G01 X-18.8562 Y28.5772
G01 X-18.8885 Y28.5262
G01 X-18.9243 Y28.4635
G01 X-18.9641 Y28.3846
G01 X-18.9922 Y28.3206
G01 X-19.0148 Y28.2622
G01 X-19.0382 Y28.1924
G01 X-19.0617 Y28.1073
G01 X-19.0761 Y28.0429
G01 X-19.0876 Y27.9774
G01 X-19.0972 Y27.9026
G01 X-19.1035 Y27.8162
G01 X-19.1050 Y27.7500
G01 X-19.1033 Y27.6838
G00 Z1.0000
G00 X-21.2438 Y23.2584
G01 F76.20
G01 Z-0.2000
G01 F200.00
G01 X-21.2403 Y23.2045
G01 X-21.2319 Y23.1363
G01 X-21.2238 Y23.0901
G01 X-21.2137 Y23.0449
G01 X-21.1997 Y22.9928
G01 X-21.1781 Y22.9275
G01 X-21.1584 Y22.8773
G01 X-21.1365 Y22.8288
G01 X-21.1185 Y22.7930
G01 X-21.0922 Y22.7458
G01 X-21.0555 Y22.6878
G01 X-21.0241 Y22.6439
G01 X-20.9906 Y22.6015
G01 X-20.9649 Y22.5718
G01 X-20.9280 Y22.5325
G01 X-20.8891 Y22.4950
G01 X-20.8471 Y22.4582
G01 X-20.8016 Y22.4224
G01 X-20.7452 Y22.3833
G01 X-20.7452 Y17.5900
G01 X-20.7440 Y17.5532
G01 X-20.7414 Y17.5239
G01 X-20.7375 Y17.4947
G01 X-20.7336 Y17.4726
G01 X-20.7253 Y17.4371
G01 X-20.7171 Y17.4088
G01 X-20.7075 Y17.3809
G01 X-20.6966 Y17.3536
G01 X-20.6847 Y17.3275
G01 X-20.6707 Y17.3006
G01 X-20.6559 Y17.2752
G01 X-20.6398 Y17.2505
G01 X-20.6261 Y17.2312
G01 X-20.6042 Y17.2036
G01 X-20.5847 Y17.1816
G01 X-20.5694 Y17.1656
G01 X-17.3944 Y13.9906
G01 X-17.3675 Y13.9654
G01 X-17.3288 Y13.9339
G01 X-17.2973 Y13.9120
G01 X-17.2594 Y13.8893
G01 X-17.2325 Y13.8753
G01 X-17.1963 Y13.8592
G01 X-17.1652 Y13.8475
G01 X-17.1229 Y13.8347
G01 X-17.0874 Y13.8264
G01 X-17.0508 Y13.8204
G01 X-17.0068 Y13.8160
G01 X-16.9700 Y13.8148
G01 X-6.2815 Y13.8148
G01 X-6.2517 Y13.7798
G01 X-6.2146 Y13.7404
G01 X-6.1752 Y13.7033
G01 X-6.1395 Y13.6729
G01 X-6.1096 Y13.6497
G01 X-6.0761 Y13.6259
G01 X-6.0367 Y13.6006
G01 X-5.9962 Y13.5772
G01 X-5.9538 Y13.5555
G01 X-5.9017 Y13.5322
G01 X-5.8544 Y13.5144
G01 X-5.8099 Y13.5000
G01 X-5.7646 Y13.4879
G01 X-5.7264 Y13.4794
G01 X-5.6873 Y13.4725
G01 X-5.6391 Y13.4662
G01 X-5.5942 Y13.4626
G01 X-5.5400 Y13.4610
G01 X-5.4858 Y13.4626
G01 X-5.4392 Y13.4664
G01 X-5.4073 Y13.4703
G01 X-5.3536 Y13.4794
G01 X-5.3011 Y13.4915
G01 X-5.2560 Y13.5043
G01 X-5.2256 Y13.5144
G01 X-5.1783 Y13.5322
G01 X-5.1262 Y13.5555
G01 X-5.0968 Y13.5703
G01 X-5.0559 Y13.5930
G01 X-5.0039 Y13.6259
G01 X-4.9658 Y13.6532
G01 X-4.9292 Y13.6823
G01 X-4.9048 Y13.7033
G01 X-4.8603 Y13.7457
G01 X-4.8283 Y13.7798
G01 X-4.8073 Y13.8042
G01 X-4.7747 Y13.8454
G01 X-4.7428 Y13.8912
G01 X-4.7248 Y13.9195
G01 X-4.7022 Y13.9588
G01 X-4.6805 Y14.0012
G01 X-4.6572 Y14.0533
G01 X-4.6394 Y14.1006
G01 X-4.6250 Y14.1451
G01 X-4.6165 Y14.1761
G01 X-4.6044 Y14.2286
G01 X-4.5953 Y14.2823
G01 X-4.5912 Y14.3159
G01 X-4.5876 Y14.3608
G01 X-4.5860 Y14.4150
G01 X-4.5876 Y14.4692
G01 X-4.5914 Y14.5158
G01 X-4.5975 Y14.5623
G01 X-4.6044 Y14.6014
G01 X-4.6129 Y14.6396
G01 X-4.6250 Y14.6849
G01 X-4.6443 Y14.7433
G01 X-4.6615 Y14.7868
G01 X-4.6805 Y14.8288
G01 X-4.6953 Y14.8582
G01 X-4.7180 Y14.8991
G01 X-4.7509 Y14.9511
G01 X-4.7782 Y14.9892
G01 X-4.8073 Y15.0258
G01 X-4.8283 Y15.0502
G01 X-4.8654 Y15.0896
G01 X-4.9048 Y15.1267
G01 X-4.9306 Y15.1489
G01 X-4.9658 Y15.1768
G01 X-5.0039 Y15.2041
G01 X-5.0445 Y15.2302
G01 X-5.0968 Y15.2597
G01 X-5.1262 Y15.2745
G01 X-5.1682 Y15.2935
G01 X-5.2117 Y15.3107
G01 X-5.2701 Y15.3300
G01 X-5.3154 Y15.3421
G01 X-5.3467 Y15.3491
G01 X-5.3927 Y15.3575
G01 X-5.4538 Y15.3650
G01 X-5.5005 Y15.3681
G01 X-5.5400 Y15.3690
G01 X-5.5795 Y15.3681
G01 X-5.6262 Y15.3650
G01 X-5.6873 Y15.3575
G01 X-5.7264 Y15.3506
G01 X-5.7646 Y15.3421
G01 X-5.8099 Y15.3300
G01 X-5.8683 Y15.3107
G01 X-5.9118 Y15.2935
G01 X-5.9538 Y15.2745
G01 X-5.9832 Y15.2597
G01 X-6.0241 Y15.2370
G01 X-6.0638 Y15.2122
G01 X-6.1096 Y15.1803
G01 X-6.1508 Y15.1477
G01 X-6.1861 Y15.1169
G01 X-6.2093 Y15.0947
G01 X-6.2419 Y15.0611
G01 X-6.2815 Y15.0152
G01 X-16.7214 Y15.0152
G01 X-19.5448 Y17.8386
G01 X-19.5448 Y22.3833
G01 X-19.5278 Y22.3945
G01 X-19.4839 Y22.4259
G01 X-19.4415 Y22.4594
G01 X-19.4009 Y22.4950
G01 X-19.3672 Y22.5272
G01 X-19.3251 Y22.5718
G01 X-19.2901 Y22.6129
G01 X-19.2572 Y22.6557
G01 X-19.2264 Y22.7000
G01 X-19.2046 Y22.7344
G01 X-19.1784 Y22.7800
G01 X-19.1535 Y22.8288
G01 X-19.1316 Y22.8773
G01 X-19.1119 Y22.9275
G01 X-19.0946 Y22.9787
G01 X-19.0798 Y23.0306
G01 X-19.0662 Y23.0901
G01 X-19.0581 Y23.1363
G01 X-19.0509 Y23.1916
G01 X-19.0468 Y23.2437
G01 X-19.0450 Y23.3050
G01 X-19.0461 Y23.3516
G01 X-19.0497 Y23.4055
G01 X-19.0559 Y23.4591
G01 X-19.0662 Y23.5199
G01 X-19.0763 Y23.5651
G01 X-19.0946 Y23.6313
G01 X-19.1119 Y23.6825
G01 X-19.1316 Y23.7327
G01 X-19.1535 Y23.7812
G01 X-19.1784 Y23.8300
G01 X-19.2054 Y23.8768
G01 X-19.2345 Y23.9222
G01 X-19.2624 Y23.9616
G01 X-19.2901 Y23.9971
G01 X-19.3350 Y24.0491
G01 X-19.3672 Y24.0828
G01 X-19.4118 Y24.1249
G01 X-19.4429 Y24.1518
G01 X-19.4884 Y24.1876
G01 X-19.5278 Y24.2155
G01 X-19.5744 Y24.2454
G01 X-19.6330 Y24.2785
G01 X-19.6814 Y24.3025
G01 X-19.7274 Y24.3226
G01 X-19.7675 Y24.3381
G01 X-19.8187 Y24.3554
G01 X-19.8849 Y24.3737
G01 X-19.9301 Y24.3838
G01 X-19.9763 Y24.3919
G01 X-20.0316 Y24.3991
G01 X-20.0837 Y24.4032
G01 X-20.1450 Y24.4050
G01 X-20.1916 Y24.4039
G01 X-20.2601 Y24.3989
G01 X-20.3137 Y24.3919
G01 X-20.3599 Y24.3838
G01 X-20.4051 Y24.3737
G01 X-20.4572 Y24.3597
G01 X-20.5225 Y24.3381
G01 X-20.5727 Y24.3184
G01 X-20.6212 Y24.2965
G01 X-20.6570 Y24.2785
G01 X-20.7042 Y24.2522
G01 X-20.7500 Y24.2236
G01 X-20.7943 Y24.1928
G01 X-20.8485 Y24.1506
G01 X-20.8891 Y24.1150
G01 X-20.9228 Y24.0828
G01 X-20.9550 Y24.0491
G01 X-20.9918 Y24.0071
G01 X-21.0328 Y23.9543
G01 X-21.0636 Y23.9100
G01 X-21.0854 Y23.8756
G01 X-21.1116 Y23.8300
G01 X-21.1365 Y23.7812
G01 X-21.1584 Y23.7327
G01 X-21.1781 Y23.6825
G01 X-21.1997 Y23.6172
G01 X-21.2137 Y23.5651
G01 X-21.2238 Y23.5199
G01 X-21.2319 Y23.4737
G01 X-21.2389 Y23.4201
G01 X-21.2439 Y23.3516
G01 X-21.2450 Y23.3050
G01 X-21.2438 Y23.2584
G00 Z1.0000
G00 X-24.5270 Y19.4556
G01 F76.20
G01 Z-0.2000
G01 F200.00
G01 X-24.5240 Y19.4088
G01 X-24.5187 Y19.3623
G01 X-24.5096 Y19.3086
G01 X-24.5011 Y19.2704
G01 X-24.4890 Y19.2251
G01 X-24.4746 Y19.1806
G01 X-24.4568 Y19.1333
G01 X-24.4395 Y19.0938
G01 X-24.4187 Y19.0518
G01 X-24.3960 Y19.0109
G01 X-24.3712 Y18.9712
G01 X-24.3393 Y18.9254
G01 X-24.3161 Y18.8955
G01 X-24.2857 Y18.8598
G01 X-24.2486 Y18.8204
G01 X-24.2201 Y18.7931
G01 X-24.1834 Y18.7611
G01 X-24.1436 Y18.7297
G01 X-24.1101 Y18.7059
G01 X-24.0695 Y18.6798
G01 X-24.0302 Y18.6572
G01 X-23.9878 Y18.6355
G01 X-23.9458 Y18.6165
G01 X-23.9023 Y18.5993
G01 X-23.8580 Y18.5843
G01 X-23.8129 Y18.5715
G01 X-23.7604 Y18.5594
G01 X-23.7213 Y18.5525
G01 X-23.6731 Y18.5462
G01 X-23.6282 Y18.5426
G01 X-23.5740 Y18.5410
G01 X-23.5345 Y18.5419
G01 X-23.4878 Y18.5450
G01 X-23.4413 Y18.5503
G01 X-23.3876 Y18.5594
G01 X-23.3494 Y18.5679
G01 X-23.3041 Y18.5800
G01 X-23.2596 Y18.5944
G01 X-23.2123 Y18.6122
G01 X-23.1728 Y18.6295
G01 X-23.1308 Y18.6503
G01 X-23.0899 Y18.6730
G01 X-23.0502 Y18.6978
G01 X-23.0044 Y18.7297
G01 X-22.9745 Y18.7529
G01 X-22.9388 Y18.7833
G01 X-22.8994 Y18.8204
G01 X-22.8721 Y18.8489
G01 X-22.8401 Y18.8856
G01 X-22.8087 Y18.9254
G01 X-22.7849 Y18.9589
G01 X-22.7588 Y18.9995
G01 X-22.7362 Y19.0388
G01 X-22.7145 Y19.0812
G01 X-22.6955 Y19.1232
G01 X-22.6783 Y19.1667
G01 X-22.6633 Y19.2110
G01 X-22.6505 Y19.2561
G01 X-22.6384 Y19.3086
G01 X-22.6315 Y19.3477
G01 X-22.6252 Y19.3959
G01 X-22.6216 Y19.4408
G01 X-22.6200 Y19.4950
G01 X-22.6209 Y19.5345
G01 X-22.6240 Y19.5812
G01 X-22.6293 Y19.6277
G01 X-22.6384 Y19.6814
G01 X-22.6469 Y19.7196
G01 X-22.6590 Y19.7649
G01 X-22.6734 Y19.8094
G01 X-22.6912 Y19.8567
G01 X-22.7085 Y19.8962
G01 X-22.7293 Y19.9382
G01 X-22.7520 Y19.9791
G01 X-22.7768 Y20.0188
G01 X-22.8087 Y20.0646
G01 X-22.8319 Y20.0945
G01 X-22.8623 Y20.1302
G01 X-22.8994 Y20.1696
G01 X-22.9279 Y20.1969
G01 X-22.9646 Y20.2289
G01 X-23.0044 Y20.2603
G01 X-23.0379 Y20.2841
G01 X-23.0785 Y20.3102
G01 X-23.1178 Y20.3328
G01 X-23.1602 Y20.3545
G01 X-23.2022 Y20.3735
G01 X-23.2457 Y20.3907
G01 X-23.2900 Y20.4057
G01 X-23.3351 Y20.4185
G01 X-23.3876 Y20.4306
G01 X-23.4267 Y20.4375
G01 X-23.4749 Y20.4438
G01 X-23.5198 Y20.4474
G01 X-23.5740 Y20.4490
G01 X-23.6135 Y20.4481
G01 X-23.6602 Y20.4450
G01 X-23.7067 Y20.4397
G01 X-23.7604 Y20.4306
G01 X-23.7986 Y20.4221
G01 X-23.8439 Y20.4100
G01 X-23.8884 Y20.3956
G01 X-23.9357 Y20.3778
G01 X-23.9752 Y20.3605
G01 X-24.0172 Y20.3397
G01 X-24.0581 Y20.3170
G01 X-24.0978 Y20.2922
G01 X-24.1436 Y20.2603
G01 X-24.1735 Y20.2371
G01 X-24.2092 Y20.2067
G01 X-24.2486 Y20.1696
G01 X-24.2759 Y20.1411
G01 X-24.3079 Y20.1044
G01 X-24.3393 Y20.0646
G01 X-24.3631 Y20.0311
G01 X-24.3892 Y19.9905
G01 X-24.4118 Y19.9512
G01 X-24.4335 Y19.9088
G01 X-24.4525 Y19.8668
G01 X-24.4697 Y19.8233
G01 X-24.4847 Y19.7790
G01 X-24.4975 Y19.7339
G01 X-24.5096 Y19.6814
G01 X-24.5165 Y19.6423
G01 X-24.5228 Y19.5941
G01 X-24.5264 Y19.5492
G01 X-24.5280 Y19.4950
G01 X-24.5270 Y19.4556
G00 Z1.0000
G00 X-24.5270 Y16.9156
G01 F76.20
G01 Z-0.2000
G01 F200.00
G01 X-24.5240 Y16.8688
G01 X-24.5187 Y16.8223
G01 X-24.5096 Y16.7686
G01 X-24.5011 Y16.7304
G01 X-24.4890 Y16.6851
G01 X-24.4746 Y16.6406
G01 X-24.4568 Y16.5933
G01 X-24.4395 Y16.5538
G01 X-24.4187 Y16.5118
G01 X-24.3960 Y16.4709
G01 X-24.3712 Y16.4312
G01 X-24.3393 Y16.3854
G01 X-24.3161 Y16.3555
G01 X-24.2857 Y16.3198
G01 X-24.2486 Y16.2804
G01 X-24.2201 Y16.2531
G01 X-24.1834 Y16.2211
G01 X-24.1436 Y16.1897
G01 X-24.1101 Y16.1659
G01 X-24.0695 Y16.1398
G01 X-24.0302 Y16.1172
G01 X-23.9878 Y16.0955
G01 X-23.9458 Y16.0765
G01 X-23.9023 Y16.0593
G01 X-23.8580 Y16.0443
G01 X-23.8129 Y16.0315
G01 X-23.7604 Y16.0194
G01 X-23.7213 Y16.0125
G01 X-23.6731 Y16.0062
G01 X-23.6282 Y16.0026
G01 X-23.5740 Y16.0010
G01 X-23.5345 Y16.0019
G01 X-23.4878 Y16.0050
G01 X-23.4413 Y16.0103
G01 X-23.3876 Y16.0194
G01 X-23.3494 Y16.0279
G01 X-23.3041 Y16.0400
G01 X-23.2596 Y16.0544
G01 X-23.2123 Y16.0722
G01 X-23.1728 Y16.0895
G01 X-23.1308 Y16.1103
G01 X-23.0899 Y16.1330
G01 X-23.0502 Y16.1578
G01 X-23.0044 Y16.1897
G01 X-22.9745 Y16.2129
G01 X-22.9388 Y16.2433
G01 X-22.8994 Y16.2804
G01 X-22.8721 Y16.3089
G01 X-22.8401 Y16.3456
G01 X-22.8087 Y16.3854
G01 X-22.7849 Y16.4189
G01 X-22.7588 Y16.4595
G01 X-22.7362 Y16.4988
G01 X-22.7145 Y16.5412
G01 X-22.6955 Y16.5832
G01 X-22.6783 Y16.6267
G01 X-22.6633 Y16.6710
G01 X-22.6505 Y16.7161
G01 X-22.6384 Y16.7686
G01 X-22.6315 Y16.8077
G01 X-22.6252 Y16.8559
G01 X-22.6216 Y16.9008
G01 X-22.6200 Y16.9550
G01 X-22.6209 Y16.9945
G01 X-22.6240 Y17.0412
G01 X-22.6293 Y17.0877
G01 X-22.6384 Y17.1414
G01 X-22.6469 Y17.1796
G01 X-22.6590 Y17.2249
G01 X-22.6734 Y17.2694
G01 X-22.6912 Y17.3167
G01 X-22.7085 Y17.3562
G01 X-22.7293 Y17.3982
G01 X-22.7520 Y17.4391
G01 X-22.7768 Y17.4788
G01 X-22.8087 Y17.5246
G01 X-22.8319 Y17.5545
G01 X-22.8623 Y17.5902
G01 X-22.8994 Y17.6296
G01 X-22.9279 Y17.6569
G01 X-22.9646 Y17.6889
G01 X-23.0044 Y17.7203
G01 X-23.0379 Y17.7441
G01 X-23.0785 Y17.7702
G01 X-23.1178 Y17.7928
G01 X-23.1602 Y17.8145
G01 X-23.2022 Y17.8335
G01 X-23.2457 Y17.8507
G01 X-23.2900 Y17.8657
G01 X-23.3351 Y17.8785
G01 X-23.3876 Y17.8906
G01 X-23.4267 Y17.8975
G01 X-23.4749 Y17.9038
G01 X-23.5198 Y17.9074
G01 X-23.5740 Y17.9090
G01 X-23.6135 Y17.9081
G01 X-23.6602 Y17.9050
G01 X-23.7067 Y17.8997
G01 X-23.7604 Y17.8906
G01 X-23.7986 Y17.8821
G01 X-23.8439 Y17.8700
G01 X-23.8884 Y17.8556
G01 X-23.9357 Y17.8378
G01 X-23.9752 Y17.8205
G01 X-24.0172 Y17.7997
G01 X-24.0581 Y17.7770
G01 X-24.0978 Y17.7522
G01 X-24.1436 Y17.7203
G01 X-24.1735 Y17.6971
G01 X-24.2092 Y17.6667
G01 X-24.2486 Y17.6296
G01 X-24.2759 Y17.6011
G01 X-24.3079 Y17.5644
G01 X-24.3393 Y17.5246
G01 X-24.3631 Y17.4911
G01 X-24.3892 Y17.4505
G01 X-24.4118 Y17.4112
G01 X-24.4335 Y17.3688
G01 X-24.4525 Y17.3268
G01 X-24.4697 Y17.2833
G01 X-24.4847 Y17.2390
G01 X-24.4975 Y17.1939
G01 X-24.5096 Y17.1414
G01 X-24.5165 Y17.1023
G01 X-24.5228 Y17.0541
G01 X-24.5264 Y17.0092
G01 X-24.5280 Y16.9550
G01 X-24.5270 Y16.9156
G00 Z1.0000
G00 X-24.5270 Y14.3756
G01 F76.20
G01 Z-0.2000
G01 F200.00
G01 X-24.5240 Y14.3288
G01 X-24.5187 Y14.2823
G01 X-24.5096 Y14.2286
G01 X-24.5011 Y14.1904
G01 X-24.4890 Y14.1451
G01 X-24.4746 Y14.1006
G01 X-24.4568 Y14.0533
G01 X-24.4395 Y14.0138
G01 X-24.4187 Y13.9718
G01 X-24.3960 Y13.9309
G01 X-24.3712 Y13.8912
G01 X-24.3393 Y13.8454
G01 X-24.3161 Y13.8155
G01 X-24.2857 Y13.7798
G01 X-24.2486 Y13.7404
G01 X-24.2201 Y13.7131
G01 X-24.1834 Y13.6811
G01 X-24.1436 Y13.6497
G01 X-24.1101 Y13.6259
G01 X-24.0695 Y13.5998
G01 X-24.0302 Y13.5772
G01 X-23.9878 Y13.5555
G01 X-23.9458 Y13.5365
G01 X-23.9023 Y13.5193
G01 X-23.8580 Y13.5043
G01 X-23.8129 Y13.4915
G01 X-23.7604 Y13.4794
G01 X-23.7213 Y13.4725
G01 X-23.6731 Y13.4662
G01 X-23.6282 Y13.4626
G01 X-23.5740 Y13.4610
G01 X-23.5345 Y13.4619
G01 X-23.4878 Y13.4650
G01 X-23.4413 Y13.4703
G01 X-23.3876 Y13.4794
G01 X-23.3494 Y13.4879
G01 X-23.3041 Y13.5000
G01 X-23.2596 Y13.5144
G01 X-23.2123 Y13.5322
G01 X-23.1728 Y13.5495
G01 X-23.1308 Y13.5703
G01 X-23.0899 Y13.5930
G01 X-23.0502 Y13.6178
G01 X-23.0044 Y13.6497
G01 X-22.9745 Y13.6729
G01 X-22.9388 Y13.7033
G01 X-22.8994 Y13.7404
G01 X-22.8721 Y13.7689
G01 X-22.8401 Y13.8056
G01 X-22.8087 Y13.8454
G01 X-22.7849 Y13.8789
G01 X-22.7588 Y13.9195
G01 X-22.7362 Y13.9588
G01 X-22.7145 Y14.0012
G01 X-22.6955 Y14.0432
G01 X-22.6783 Y14.0867
G01 X-22.6633 Y14.1310
G01 X-22.6505 Y14.1761
G01 X-22.6384 Y14.2286
G01 X-22.6315 Y14.2677
G01 X-22.6252 Y14.3159
G01 X-22.6216 Y14.3608
G01 X-22.6200 Y14.4150
G01 X-22.6209 Y14.4545
G01 X-22.6240 Y14.5012
G01 X-22.6293 Y14.5477
G01 X-22.6384 Y14.6014
G01 X-22.6469 Y14.6396
G01 X-22.6590 Y14.6849
G01 X-22.6734 Y14.7294
G01 X-22.6912 Y14.7767
G01 X-22.7085 Y14.8162
G01 X-22.7293 Y14.8582
G01 X-22.7520 Y14.8991
G01 X-22.7768 Y14.9388
G01 X-22.8087 Y14.9846
G01 X-22.8319 Y15.0145
G01 X-22.8623 Y15.0502
G01 X-22.8994 Y15.0896
G01 X-22.9279 Y15.1169
G01 X-22.9646 Y15.1489
G01 X-23.0044 Y15.1803
G01 X-23.0379 Y15.2041
G01 X-23.0785 Y15.2302
G01 X-23.1178 Y15.2528
G01 X-23.1602 Y15.2745
G01 X-23.2022 Y15.2935
G01 X-23.2457 Y15.3107
G01 X-23.2900 Y15.3257
G01 X-23.3351 Y15.3385
G01 X-23.3876 Y15.3506
G01 X-23.4267 Y15.3575
G01 X-23.4749 Y15.3638
G01 X-23.5198 Y15.3674
G01 X-23.5740 Y15.3690
G01 X-23.6135 Y15.3681
G01 X-23.6602 Y15.3650
G01 X-23.7067 Y15.3597
G01 X-23.7604 Y15.3506
G01 X-23.7986 Y15.3421
G01 X-23.8439 Y15.3300
G01 X-23.8884 Y15.3156
G01 X-23.9357 Y15.2978
G01 X-23.9752 Y15.2805
G01 X-24.0172 Y15.2597
G01 X-24.0581 Y15.2370
G01 X-24.0978 Y15.2122
G01 X-24.1436 Y15.1803
G01 X-24.1735 Y15.1571
G01 X-24.2092 Y15.1267
G01 X-24.2486 Y15.0896
G01 X-24.2759 Y15.0611
G01 X-24.3079 Y15.0244
G01 X-24.3393 Y14.9846
G01 X-24.3631 Y14.9511
G01 X-24.3892 Y14.9105
G01 X-24.4118 Y14.8712
G01 X-24.4335 Y14.8288
G01 X-24.4525 Y14.7868
G01 X-24.4697 Y14.7433
G01 X-24.4847 Y14.6990
G01 X-24.4975 Y14.6539
G01 X-24.5096 Y14.6014
G01 X-24.5165 Y14.5623
G01 X-24.5228 Y14.5141
G01 X-24.5264 Y14.4692
G01 X-24.5280 Y14.4150
G01 X-24.5270 Y14.3756
G00 Z1.0000
G00 X-24.5270 Y11.8356
G01 F76.20
G01 Z-0.2000
G01 F200.00
G01 X-24.5240 Y11.7888
G01 X-24.5187 Y11.7423
G01 X-24.5096 Y11.6886
G01 X-24.5011 Y11.6504
G01 X-24.4890 Y11.6051
G01 X-24.4746 Y11.5606
G01 X-24.4568 Y11.5133
G01 X-24.4395 Y11.4738
G01 X-24.4187 Y11.4318
G01 X-24.3960 Y11.3909
G01 X-24.3712 Y11.3512
G01 X-24.3393 Y11.3054
G01 X-24.3161 Y11.2755
G01 X-24.2857 Y11.2398
G01 X-24.2486 Y11.2004
G01 X-24.2201 Y11.1731
G01 X-24.1834 Y11.1411
G01 X-24.1436 Y11.1097
G01 X-24.1101 Y11.0859
G01 X-24.0695 Y11.0598
G01 X-24.0302 Y11.0372
G01 X-23.9878 Y11.0155
G01 X-23.9458 Y10.9965
G01 X-23.9023 Y10.9793
G01 X-23.8580 Y10.9643
G01 X-23.8129 Y10.9515
G01 X-23.7604 Y10.9394
G01 X-23.7213 Y10.9325
G01 X-23.6731 Y10.9262
G01 X-23.6282 Y10.9226
G01 X-23.5740 Y10.9210
G01 X-23.5345 Y10.9219
G01 X-23.4878 Y10.9250
G01 X-23.4413 Y10.9303
G01 X-23.3876 Y10.9394
G01 X-23.3494 Y10.9479
G01 X-23.3041 Y10.9600
G01 X-23.2596 Y10.9744
G01 X-23.2123 Y10.9922
G01 X-23.1728 Y11.0095
G01 X-23.1308 Y11.0303
G01 X-23.0899 Y11.0530
G01 X-23.0502 Y11.0778
G01 X-23.0044 Y11.1097
G01 X-22.9745 Y11.1329
G01 X-22.9388 Y11.1633
G01 X-22.8994 Y11.2004
G01 X-22.8721 Y11.2289
G01 X-22.8401 Y11.2656
G01 X-22.8087 Y11.3054
G01 X-22.7849 Y11.3389
G01 X-22.7588 Y11.3795
G01 X-22.7362 Y11.4188
G01 X-22.7145 Y11.4612
G01 X-22.6955 Y11.5032
G01 X-22.6783 Y11.5467
G01 X-22.6633 Y11.5910
G01 X-22.6505 Y11.6361
G01 X-22.6384 Y11.6886
G01 X-22.6315 Y11.7277
G01 X-22.6252 Y11.7759
G01 X-22.6216 Y11.8208
G01 X-22.6200 Y11.8750
G01 X-22.6209 Y11.9145
G01 X-22.6240 Y11.9612
G01 X-22.6293 Y12.0077
G01 X-22.6384 Y12.0614
G01 X-22.6469 Y12.0996
G01 X-22.6590 Y12.1449
G01 X-22.6734 Y12.1894
G01 X-22.6912 Y12.2367
G01 X-22.7085 Y12.2762
G01 X-22.7293 Y12.3182
G01 X-22.7520 Y12.3591
G01 X-22.7768 Y12.3988
G01 X-22.8087 Y12.4446
G01 X-22.8319 Y12.4745
G01 X-22.8623 Y12.5102
G01 X-22.8994 Y12.5496
G01 X-22.9279 Y12.5769
G01 X-22.9646 Y12.6089
G01 X-23.0044 Y12.6403
G01 X-23.0379 Y12.6641
G01 X-23.0785 Y12.6902
G01 X-23.1178 Y12.7128
G01 X-23.1602 Y12.7345
G01 X-23.2022 Y12.7535
G01 X-23.2457 Y12.7707
G01 X-23.2900 Y12.7857
G01 X-23.3351 Y12.7985
G01 X-23.3876 Y12.8106
G01 X-23.4267 Y12.8175
G01 X-23.4749 Y12.8238
G01 X-23.5198 Y12.8274
G01 X-23.5740 Y12.8290
G01 X-23.6135 Y12.8281
G01 X-23.6602 Y12.8250
G01 X-23.7067 Y12.8197
G01 X-23.7604 Y12.8106
G01 X-23.7986 Y12.8021
G01 X-23.8439 Y12.7900
G01 X-23.8884 Y12.7756
G01 X-23.9357 Y12.7578
G01 X-23.9752 Y12.7405
G01 X-24.0172 Y12.7197
G01 X-24.0581 Y12.6970
G01 X-24.0978 Y12.6722
G01 X-24.1436 Y12.6403
G01 X-24.1735 Y12.6171
G01 X-24.2092 Y12.5867
G01 X-24.2486 Y12.5496
G01 X-24.2759 Y12.5211
G01 X-24.3079 Y12.4844
G01 X-24.3393 Y12.4446
G01 X-24.3631 Y12.4111
G01 X-24.3892 Y12.3705
G01 X-24.4118 Y12.3312
G01 X-24.4335 Y12.2888
G01 X-24.4525 Y12.2468
G01 X-24.4697 Y12.2033
G01 X-24.4847 Y12.1590
G01 X-24.4975 Y12.1139
G01 X-24.5096 Y12.0614
G01 X-24.5165 Y12.0223
G01 X-24.5228 Y11.9741
G01 X-24.5264 Y11.9292
G01 X-24.5280 Y11.8750
G01 X-24.5270 Y11.8356
G00 Z1.0000
G00 X-28.2288 Y4.8434
G01 F76.20
G01 Z-0.2000
G01 F200.00
G01 X-28.2253 Y4.7895
G01 X-28.2191 Y4.7359
G01 X-28.2088 Y4.6751
G01 X-28.1987 Y4.6299
G01 X-28.1847 Y4.5778
G01 X-28.1681 Y4.5264
G01 X-28.1476 Y4.4724
G01 X-28.1275 Y4.4264
G01 X-28.1035 Y4.3780
G01 X-28.0772 Y4.3308
G01 X-28.0486 Y4.2850
G01 X-28.0126 Y4.2334
G01 X-27.9849 Y4.1979
G01 X-27.9499 Y4.1568
G01 X-27.9078 Y4.1122
G01 X-27.8741 Y4.0800
G01 X-27.8321 Y4.0432
G01 X-27.7866 Y4.0074
G01 X-27.7472 Y3.9795
G01 X-27.7006 Y3.9496
G01 X-27.6550 Y3.9234
G01 X-27.6062 Y3.8985
G01 X-27.5577 Y3.8766
G01 X-27.5075 Y3.8569
G01 X-27.4563 Y3.8396
G01 X-27.4044 Y3.8248
G01 X-27.3449 Y3.8112
G01 X-27.2987 Y3.8031
G01 X-27.2434 Y3.7959
G01 X-27.1913 Y3.7918
G01 X-27.1300 Y3.7900
G01 X-27.0834 Y3.7911
G01 X-27.0295 Y3.7947
G01 X-26.9759 Y3.8009
G01 X-26.9151 Y3.8112
G01 X-26.8699 Y3.8213
G01 X-26.8178 Y3.8353
G01 X-26.7664 Y3.8519
G01 X-26.7124 Y3.8724
G01 X-26.6664 Y3.8925
G01 X-26.6180 Y3.9165
G01 X-26.5708 Y3.9428
G01 X-26.5250 Y3.9714
G01 X-26.4734 Y4.0074
G01 X-26.4379 Y4.0351
G01 X-26.3968 Y4.0701
G01 X-26.3522 Y4.1122
G01 X-26.3200 Y4.1459
G01 X-26.2832 Y4.1879
G01 X-26.2474 Y4.2334
G01 X-26.2195 Y4.2728
G01 X-26.1896 Y4.3194
G01 X-26.1634 Y4.3650
G01 X-26.1385 Y4.4138
G01 X-26.1166 Y4.4623
G01 X-26.0969 Y4.5125
G01 X-26.0796 Y4.5637
G01 X-26.0648 Y4.6156
G01 X-26.0512 Y4.6751
G01 X-26.0431 Y4.7213
G01 X-26.0359 Y4.7766
G01 X-26.0318 Y4.8287
G01 X-26.0300 Y4.8900
G01 X-26.0311 Y4.9366
G01 X-26.0347 Y4.9905
G01 X-26.0409 Y5.0441
G01 X-26.0512 Y5.1049
G01 X-26.0613 Y5.1501
G01 X-26.0753 Y5.2022
G01 X-26.0919 Y5.2536
G01 X-26.1124 Y5.3076
G01 X-26.1325 Y5.3536
G01 X-26.1565 Y5.4020
G01 X-26.1828 Y5.4492
G01 X-26.2114 Y5.4950
G01 X-26.2474 Y5.5466
G01 X-26.2751 Y5.5821
G01 X-26.3101 Y5.6232
G01 X-26.3522 Y5.6678
G01 X-26.3859 Y5.7000
G01 X-26.4279 Y5.7368
G01 X-26.4734 Y5.7726
G01 X-26.5128 Y5.8005
G01 X-26.5594 Y5.8304
G01 X-26.6050 Y5.8566
G01 X-26.6538 Y5.8815
G01 X-26.7023 Y5.9034
G01 X-26.7525 Y5.9231
G01 X-26.8037 Y5.9404
G01 X-26.8556 Y5.9552
G01 X-26.9151 Y5.9688
G01 X-26.9613 Y5.9769
G01 X-27.0166 Y5.9841
G01 X-27.0687 Y5.9882
G01 X-27.1300 Y5.9900
G01 X-27.1766 Y5.9889
G01 X-27.2305 Y5.9853
G01 X-27.2841 Y5.9791
G01 X-27.3449 Y5.9688
G01 X-27.3901 Y5.9587
G01 X-27.4422 Y5.9447
G01 X-27.4936 Y5.9281
G01 X-27.5476 Y5.9076
G01 X-27.5936 Y5.8875
G01 X-27.6420 Y5.8635
G01 X-27.6892 Y5.8372
G01 X-27.7350 Y5.8086
G01 X-27.7866 Y5.7726
G01 X-27.8221 Y5.7449
G01 X-27.8632 Y5.7099
G01 X-27.9078 Y5.6678
G01 X-27.9400 Y5.6341
G01 X-27.9768 Y5.5921
G01 X-28.0126 Y5.5466
G01 X-28.0405 Y5.5072
G01 X-28.0704 Y5.4606
G01 X-28.0966 Y5.4150
G01 X-28.1215 Y5.3662
G01 X-28.1434 Y5.3177
G01 X-28.1631 Y5.2675
G01 X-28.1804 Y5.2163
G01 X-28.1952 Y5.1644
G01 X-28.2088 Y5.1049
G01 X-28.2169 Y5.0587
G01 X-28.2241 Y5.0034
G01 X-28.2282 Y4.9513
G01 X-28.2300 Y4.8900
G01 X-28.2288 Y4.8434
G00 Z1.0000
G00 X-24.5270 Y1.6756
G01 F76.20
G01 Z-0.2000
G01 F200.00
G01 X-24.5240 Y1.6288
G01 X-24.5187 Y1.5823
G01 X-24.5096 Y1.5286
G01 X-24.5011 Y1.4904
G01 X-24.4890 Y1.4451
G01 X-24.4746 Y1.4006
G01 X-24.4568 Y1.3533
G01 X-24.4395 Y1.3138
G01 X-24.4187 Y1.2718
G01 X-24.3960 Y1.2309
G01 X-24.3712 Y1.1912
G01 X-24.3393 Y1.1454
G01 X-24.3161 Y1.1155
G01 X-24.2857 Y1.0798
G01 X-24.2486 Y1.0404
G01 X-24.2201 Y1.0131
G01 X-24.1834 Y0.9811
G01 X-24.1436 Y0.9497
G01 X-24.1101 Y0.9259
G01 X-24.0695 Y0.8998
G01 X-24.0302 Y0.8772
G01 X-23.9878 Y0.8555
G01 X-23.9458 Y0.8365
G01 X-23.9023 Y0.8193
G01 X-23.8580 Y0.8043
G01 X-23.8129 Y0.7915
G01 X-23.7604 Y0.7794
G01 X-23.7213 Y0.7725
G01 X-23.6731 Y0.7662
G01 X-23.6282 Y0.7626
G01 X-23.5740 Y0.7610
G01 X-23.5345 Y0.7619
G01 X-23.4878 Y0.7650
G01 X-23.4413 Y0.7703
G01 X-23.3876 Y0.7794
G01 X-23.3494 Y0.7879
G01 X-23.3041 Y0.8000
G01 X-23.2596 Y0.8144
G01 X-23.2123 Y0.8322
G01 X-23.1728 Y0.8495
G01 X-23.1308 Y0.8703
G01 X-23.0899 Y0.8930
G01 X-23.0502 Y0.9178
G01 X-23.0044 Y0.9497
G01 X-22.9745 Y0.9729
G01 X-22.9388 Y1.0033
G01 X-22.8994 Y1.0404
G01 X-22.8721 Y1.0689
G01 X-22.8401 Y1.1056
G01 X-22.8087 Y1.1454
G01 X-22.7849 Y1.1789
G01 X-22.7588 Y1.2195
G01 X-22.7362 Y1.2588
G01 X-22.7145 Y1.3012
G01 X-22.6955 Y1.3432
G01 X-22.6783 Y1.3867
G01 X-22.6633 Y1.4310
G01 X-22.6505 Y1.4761
G01 X-22.6384 Y1.5286
G01 X-22.6315 Y1.5677
G01 X-22.6252 Y1.6159
G01 X-22.6216 Y1.6608
G01 X-22.6200 Y1.7150
G01 X-22.6209 Y1.7545
G01 X-22.6240 Y1.8012
G01 X-22.6293 Y1.8477
G01 X-22.6384 Y1.9014
G01 X-22.6469 Y1.9396
G01 X-22.6590 Y1.9849
G01 X-22.6734 Y2.0294
G01 X-22.6912 Y2.0767
G01 X-22.7085 Y2.1162
G01 X-22.7293 Y2.1582
G01 X-22.7520 Y2.1991
G01 X-22.7768 Y2.2388
G01 X-22.8087 Y2.2846
G01 X-22.8319 Y2.3145
G01 X-22.8623 Y2.3502
G01 X-22.8994 Y2.3896
G01 X-22.9279 Y2.4169
G01 X-22.9646 Y2.4489
G01 X-23.0044 Y2.4803
G01 X-23.0379 Y2.5041
G01 X-23.0785 Y2.5302
G01 X-23.1178 Y2.5528
G01 X-23.1602 Y2.5745
G01 X-23.2022 Y2.5935
G01 X-23.2457 Y2.6107
G01 X-23.2900 Y2.6257
G01 X-23.3351 Y2.6385
G01 X-23.3876 Y2.6506
G01 X-23.4267 Y2.6575
G01 X-23.4749 Y2.6638
G01 X-23.5198 Y2.6674
G01 X-23.5740 Y2.6690
G01 X-23.6135 Y2.6681
G01 X-23.6602 Y2.6650
G01 X-23.7067 Y2.6597
G01 X-23.7604 Y2.6506
G01 X-23.7986 Y2.6421
G01 X-23.8439 Y2.6300
G01 X-23.8884 Y2.6156
G01 X-23.9357 Y2.5978
G01 X-23.9752 Y2.5805
G01 X-24.0172 Y2.5597
G01 X-24.0581 Y2.5370
G01 X-24.0978 Y2.5122
G01 X-24.1436 Y2.4803
G01 X-24.1735 Y2.4571
G01 X-24.2092 Y2.4267
G01 X-24.2486 Y2.3896
G01 X-24.2759 Y2.3611
G01 X-24.3079 Y2.3244
G01 X-24.3393 Y2.2846
G01 X-24.3631 Y2.2511
G01 X-24.3892 Y2.2105
G01 X-24.4118 Y2.1712
G01 X-24.4335 Y2.1288
G01 X-24.4525 Y2.0868
G01 X-24.4697 Y2.0433
G01 X-24.4847 Y1.9990
G01 X-24.4975 Y1.9539
G01 X-24.5096 Y1.9014
G01 X-24.5165 Y1.8623
G01 X-24.5228 Y1.8141
G01 X-24.5264 Y1.7692
G01 X-24.5280 Y1.7150
G01 X-24.5270 Y1.6756
G00 Z1.0000
G00 X-43.4688 Y4.8434
G01 F76.20
G01 Z-0.2000
G01 F200.00
G01 X-43.4653 Y4.7895
G01 X-43.4591 Y4.7359
G01 X-43.4488 Y4.6751
G01 X-43.4387 Y4.6299
G01 X-43.4247 Y4.5778
G01 X-43.4081 Y4.5264
G01 X-43.3876 Y4.4724
G01 X-43.3675 Y4.4264
G01 X-43.3435 Y4.3780
G01 X-43.3172 Y4.3308
G01 X-43.2886 Y4.2850
G01 X-43.2526 Y4.2334
G01 X-43.2249 Y4.1979
G01 X-43.1899 Y4.1568
G01 X-43.1478 Y4.1122
G01 X-43.1141 Y4.0800
G01 X-43.0721 Y4.0432
G01 X-43.0266 Y4.0074
G01 X-42.9872 Y3.9795
G01 X-42.9406 Y3.9496
G01 X-42.8950 Y3.9234
G01 X-42.8462 Y3.8985
G01 X-42.7977 Y3.8766
G01 X-42.7475 Y3.8569
G01 X-42.6963 Y3.8396
G01 X-42.6444 Y3.8248
G01 X-42.5849 Y3.8112
G01 X-42.5387 Y3.8031
G01 X-42.4834 Y3.7959
G01 X-42.4313 Y3.7918
G01 X-42.3700 Y3.7900
G01 X-42.3234 Y3.7911
G01 X-42.2695 Y3.7947
G01 X-42.2159 Y3.8009
G01 X-42.1551 Y3.8112
G01 X-42.1099 Y3.8213
G01 X-42.0578 Y3.8353
G01 X-42.0064 Y3.8519
G01 X-41.9524 Y3.8724
G01 X-41.9064 Y3.8925
G01 X-41.8580 Y3.9165
G01 X-41.8108 Y3.9428
G01 X-41.7650 Y3.9714
G01 X-41.7134 Y4.0074
G01 X-41.6779 Y4.0351
G01 X-41.6368 Y4.0701
G01 X-41.5922 Y4.1122
G01 X-41.5600 Y4.1459
G01 X-41.5232 Y4.1879
G01 X-41.4874 Y4.2334
G01 X-41.4595 Y4.2728
G01 X-41.4296 Y4.3194
G01 X-41.4034 Y4.3650
G01 X-41.3785 Y4.4138
G01 X-41.3566 Y4.4623
G01 X-41.3369 Y4.5125
