(G-CODE GENERATED BY FLATCAM v8.99 - www.flatcam.org - Version Date: 2019/12/15)

(Name: drill_cnc)
(Type: G-code from Excellon)
(Units: MM)

(Created on Thursday, 25 June 2020 at 11:09)

(Feedrate: 50.0 mm/min)
(Feedrate rapids 76.2 mm/min)

(Z_Cut: -2.0 mm)
(Z_Move: 1.0 mm)
(Z Toolchange: 20.0 mm)
(X,Y Toolchange: 0.0000, 0.0000 mm)
(Z Start: None mm)
(Z End: 20.0 mm)
(Steps per circle: 128)
(Preprocessor Excellon: default)

(X range:    2.6000 ...   42.7700  mm)
(Y range:    1.3150 ...   44.0250  mm)

(Spindle Speed: 12000.0 RPM)
G21
G90
G94




G01 F50.00
G00 Z1.0000

M03 S12000.0
G00 X-17.6050 Y39.1800
G01 Z-2.0000
G01 Z0
G00 Z1.0000
G00 X-23.3200 Y40.4500
G01 Z-2.0000
G01 Z0
G00 Z1.0000
G00 X-27.1300 Y40.4500
G01 Z-2.0000
G01 Z0
G00 Z1.0000
G00 X-27.1300 Y37.9100
G01 Z-2.0000
G01 Z0
G00 Z1.0000
G00 X-27.1300 Y35.3700
G01 Z-2.0000
G01 Z0
G00 Z1.0000
G00 X-27.1300 Y32.8300
G01 Z-2.0000
G01 Z0
G00 Z1.0000
G00 X-32.2100 Y32.1950
G01 Z-2.0000
G01 Z0
G00 Z1.0000
G00 X-35.2100 Y32.1950
G01 Z-2.0000
G01 Z0
G00 Z1.0000
G00 X-42.3700 Y40.4500
G01 Z-2.0000
G01 Z0
G00 Z1.0000
G00 X-42.3700 Y37.9100
G01 Z-2.0000
G01 Z0
G00 Z1.0000
G00 X-42.3700 Y35.3700
G01 Z-2.0000
G01 Z0
G00 Z1.0000
G00 X-42.3700 Y32.8300
G01 Z-2.0000
G01 Z0
G00 Z1.0000
G00 X-42.3700 Y30.2900
G01 Z-2.0000
G01 Z0
G00 Z1.0000
G00 X-42.3700 Y27.7500
G01 Z-2.0000
G01 Z0
G00 Z1.0000
G00 X-42.3700 Y25.2100
G01 Z-2.0000
G01 Z0
G00 Z1.0000
G00 X-42.3700 Y22.6700
G01 Z-2.0000
G01 Z0
G00 Z1.0000
G00 X-42.3700 Y20.1300
G01 Z-2.0000
G01 Z0
G00 Z1.0000
G00 X-42.3700 Y17.5900
G01 Z-2.0000
G01 Z0
G00 Z1.0000
G00 X-42.3700 Y15.0500
G01 Z-2.0000
G01 Z0
G00 Z1.0000
G00 X-42.3700 Y12.5100
G01 Z-2.0000
G01 Z0
G00 Z1.0000
G00 X-42.3700 Y9.9700
G01 Z-2.0000
G01 Z0
G00 Z1.0000
G00 X-42.3700 Y7.4300
G01 Z-2.0000
G01 Z0
G00 Z1.0000
G00 X-42.3700 Y4.8900
G01 Z-2.0000
G01 Z0
G00 Z1.0000
G00 X-27.1300 Y4.8900
G01 Z-2.0000
G01 Z0
G00 Z1.0000
G00 X-23.5740 Y4.2550
G01 Z-2.0000
G01 Z0
G00 Z1.0000
G00 X-23.5740 Y1.7150
G01 Z-2.0000
G01 Z0
G00 Z1.0000
G00 X-5.5400 Y1.7150
G01 Z-2.0000
G01 Z0
G00 Z1.0000
G00 X-5.5400 Y4.2550
G01 Z-2.0000
G01 Z0
G00 Z1.0000
G00 X-5.5400 Y6.7950
G01 Z-2.0000
G01 Z0
G00 Z1.0000
G00 X-5.5400 Y9.3350
G01 Z-2.0000
G01 Z0
G00 Z1.0000
G00 X-5.5400 Y11.8750
G01 Z-2.0000
G01 Z0
G00 Z1.0000
G00 X-5.5400 Y14.4150
G01 Z-2.0000
G01 Z0
G00 Z1.0000
G00 X-5.5400 Y16.9550
G01 Z-2.0000
G01 Z0
G00 Z1.0000
G00 X-5.5400 Y19.4950
G01 Z-2.0000
G01 Z0
G00 Z1.0000
G00 X-3.0000 Y42.9900
G01 Z-2.0000
G01 Z0
G00 Z1.0000
G00 X-5.1000 Y42.9900
G01 Z-2.0000
G01 Z0
G00 Z1.0000
G00 X-7.1000 Y42.9900
G01 Z-2.0000
G01 Z0
G00 Z1.0000
G00 X-9.1000 Y42.9900
G01 Z-2.0000
G01 Z0
G00 Z1.0000
G00 X-11.2000 Y42.9900
G01 Z-2.0000
G01 Z0
G00 Z1.0000
G00 X-14.4300 Y43.6250
G01 Z-2.0000
G01 Z0
G00 Z1.0000
G00 X-14.4300 Y36.0050
G01 Z-2.0000
G01 Z0
G00 Z1.0000
G00 X-17.6050 Y27.7500
G01 Z-2.0000
G01 Z0
G00 Z1.0000
G00 X-20.1450 Y23.3050
G01 Z-2.0000
G01 Z0
G00 Z1.0000
G00 X-23.5740 Y19.4950
G01 Z-2.0000
G01 Z0
G00 Z1.0000
G00 X-23.5740 Y16.9550
G01 Z-2.0000
G01 Z0
G00 Z1.0000
G00 X-23.5740 Y14.4150
G01 Z-2.0000
G01 Z0
G00 Z1.0000
G00 X-23.5740 Y11.8750
G01 Z-2.0000
G01 Z0
G00 Z1.0000
G00 X-23.5740 Y9.3350
G01 Z-2.0000
G01 Z0
G00 Z1.0000
G00 X-23.5740 Y6.7950
G01 Z-2.0000
G01 Z0
G00 Z1.0000
G00 X-27.1300 Y7.4300
G01 Z-2.0000
G01 Z0
G00 Z1.0000
G00 X-27.1300 Y9.9700
G01 Z-2.0000
G01 Z0
G00 Z1.0000
G00 X-27.1300 Y12.5100
G01 Z-2.0000
G01 Z0
G00 Z1.0000
G00 X-27.1300 Y15.0500
G01 Z-2.0000
G01 Z0
G00 Z1.0000
G00 X-27.1300 Y17.5900
G01 Z-2.0000
G01 Z0
G00 Z1.0000
G00 X-27.1300 Y20.1300
G01 Z-2.0000
G01 Z0
G00 Z1.0000
G00 X-27.1300 Y22.6700
G01 Z-2.0000
G01 Z0
G00 Z1.0000
G00 X-27.1300 Y25.2100
G01 Z-2.0000
G01 Z0
G00 Z1.0000
G00 X-27.1300 Y27.7500
G01 Z-2.0000
G01 Z0
G00 Z1.0000
G00 X-27.1300 Y30.2900
G01 Z-2.0000
G01 Z0
G00 Z1.0000
G00 X-23.3200 Y30.2900
G01 Z-2.0000
G01 Z0
G00 Z1.0000
G00 X-20.1450 Y33.4650
G01 Z-2.0000
G01 Z0
G00 Z1.0000
M03 S12000.0
G00 X-4.9050 Y37.2750
G01 Z-2.0000
G01 Z0
G00 Z1.0000
G00 X-4.9050 Y33.4650
G01 Z-2.0000
G01 Z0
G00 Z1.0000
G00 X-4.9050 Y29.6550
G01 Z-2.0000
G01 Z0
G00 Z1.0000
G00 X-4.9050 Y25.8450
G01 Z-2.0000
G01 Z0
G00 Z1.0000
M03 S12000.0
G00 X-33.1900 Y5.0000
G01 Z-2.0000
G01 Z0
G00 Z1.0000
G00 X-37.0000 Y5.0000
G01 Z-2.0000
G01 Z0
G00 Z1.0000
G00 X-12.5250 Y29.6550
G01 Z-2.0000
G01 Z0
G00 Z1.0000
G00 X-12.5250 Y25.8450
G01 Z-2.0000
G01 Z0
G00 Z1.0000
M03 S12000.0
G00 X-30.9400 Y18.2800
G01 Z-2.0000
G01 Z0
G00 Z1.0000
G00 X-30.9400 Y13.7800
G01 Z-2.0000
G01 Z0
G00 Z1.0000
G00 X-37.4400 Y13.7800
G01 Z-2.0000
G01 Z0
G00 Z1.0000
G00 X-37.4400 Y18.2800
G01 Z-2.0000
G01 Z0
G00 Z1.0000
M05
G00 Z20.00
G00 X0.0 Y0.0

